; G-Code generated by Simplify3D(R) Version 3.1.1
; Mar 25, 2018 at 10:40:42 PM
; Settings Summary
;   processName,Prusa i3 Mk2S
;   applyToModels,Becher_4_20180325_test,Gehäuse_4_20180325_test
;   profileName,Default (modified)
;   profileVersion,2017-07-16 09:26:29
;   baseProfile,Default
;   printMaterial,PETg
;   printQuality,Normal 0.2
;   printExtruders,
;   extruderName,Primary Extruder
;   extruderToolheadNumber,0
;   extruderDiameter,0.4
;   extruderAutoWidth,0
;   extruderWidth,0.44
;   extrusionMultiplier,0.95
;   extruderUseRetract,1
;   extruderRetractionDistance,1
;   extruderExtraRestartDistance,0
;   extruderRetractionZLift,0.5
;   extruderRetractionSpeed,1800
;   extruderUseCoasting,1
;   extruderCoastingDistance,0.5
;   extruderUseWipe,1
;   extruderWipeDistance,2
;   primaryExtruder,0
;   layerHeight,0.2
;   topSolidLayers,5
;   bottomSolidLayers,4
;   perimeterOutlines,3
;   printPerimetersInsideOut,1
;   startPointOption,2
;   startPointOriginX,230
;   startPointOriginY,0
;   startPointOriginZ,210
;   sequentialIslands,0
;   spiralVaseMode,0
;   firstLayerHeightPercentage,100
;   firstLayerWidthPercentage,100
;   firstLayerUnderspeed,0.7
;   useRaft,0
;   raftExtruder,0
;   raftLayers,3
;   raftOffset,3
;   raftSeparationDistance,0.14
;   raftInfill,85
;   disableRaftBaseLayers,0
;   useSkirt,0
;   skirtExtruder,0
;   skirtLayers,1
;   skirtOutlines,5
;   skirtOffset,0
;   usePrimePillar,0
;   primePillarExtruder,999
;   primePillarWidth,12
;   primePillarLocation,7
;   primePillarSpeedMultiplier,1
;   useOozeShield,0
;   oozeShieldExtruder,999
;   oozeShieldOffset,2
;   oozeShieldOutlines,1
;   oozeShieldSidewallShape,1
;   oozeShieldSidewallAngle,30
;   oozeShieldSpeedMultiplier,1
;   infillExtruder,0
;   internalInfillPattern,Grid
;   externalInfillPattern,Rectilinear
;   infillPercentage,40
;   outlineOverlapPercentage,25
;   infillExtrusionWidthPercentage,100
;   minInfillLength,2
;   infillLayerInterval,1
;   infillAngles,45,-45
;   overlapInfillAngles,1
;   generateSupport,0
;   supportExtruder,0
;   supportInfillPercentage,25
;   supportExtraInflation,0.2
;   denseSupportLayers,0
;   denseSupportInfillPercentage,75
;   supportLayerInterval,1
;   supportHorizontalPartOffset,0.25
;   supportUpperSeparationLayers,1
;   supportLowerSeparationLayers,1
;   supportType,0
;   supportGridSpacing,4
;   maxOverhangAngle,0
;   supportAngles,0,90
;   temperatureName,Primary Extruder,Heated Bed
;   temperatureNumber,0,1
;   temperatureSetpointCount,2,1
;   temperatureSetpointLayers,1,1,1
;   temperatureSetpointTemperatures,240,235,90
;   temperatureStabilizeAtStartup,1,1
;   temperatureHeatedBed,0,1
;   temperatureRelayBetweenLayers,0,0
;   temperatureRelayBetweenLoops,0,0
;   fanLayers,1,4
;   fanSpeeds,0,100
;   blipFanToFullPower,1
;   adjustSpeedForCooling,1
;   minSpeedLayerTime,12
;   minCoolingSpeedSlowdown,15
;   increaseFanForCooling,0
;   minFanLayerTime,45
;   maxCoolingFanSpeed,100
;   increaseFanForBridging,1
;   bridgingFanSpeed,100
;   use5D,1
;   relativeEdistances,1
;   allowEaxisZeroing,1
;   independentExtruderAxes,0
;   includeM10123,0
;   stickySupport,1
;   applyToolheadOffsets,0
;   gcodeXoffset,0
;   gcodeYoffset,0
;   gcodeZoffset,0
;   overrideMachineDefinition,1
;   machineTypeOverride,0
;   strokeXoverride,250
;   strokeYoverride,210
;   strokeZoverride,200
;   originOffsetXoverride,0
;   originOffsetYoverride,0
;   originOffsetZoverride,0
;   homeXdirOverride,-1
;   homeYdirOverride,-1
;   homeZdirOverride,-1
;   flipXoverride,1
;   flipYoverride,-1
;   flipZoverride,1
;   toolheadOffsets,0,0|0,0|0,0|0,0|0,0|0,0
;   overrideFirmwareConfiguration,0
;   firmwareTypeOverride,RepRap (Marlin/Repetier/Sprinter)
;   GPXconfigOverride,r2
;   baudRateOverride,115200
;   overridePrinterModels,0
;   printerModelsOverride
;   startingGcode,M115 U3.0.12 ; tell the printer latest firmware varsion available,M104 S[extruder0_temperature] T0 ; this will take the layer 1 temperature for extruder 0,M140 S[bed1_temperature] ; this will take the layer 1 temperature for bed 0,M190 S[bed1_temperature] ; wait for bed temp,M109 S[extruder0_temperature] T0 ; wait for extruder temp,G28 W ; home all without mesh bed level,G80 ; mesh bed leveling,G1 Y-3.0 F1000.0 ; go outside printing area,G1 X60.0 E9.0  F1000.0 ; intro line,G1 X100.0 E12.5  F1000.0 ; intro line,
;   layerChangeGcode,
;   retractionGcode,
;   toolChangeGcode,
;   endingGcode,M104 S0 ; turn off extruder,M140 S0 ; turn off bed,M107 ; turn off fan,G1 X0 Y200; home X axis,M84 ; disable motors
;   exportFileFormat,gcode
;   celebration,0
;   celebrationSong,Random Song
;   postProcessing,{REPLACE "; outer perimeter\n" "; outer perimeter\nM204 S800\n"},{REPLACE "; inner perimeter\n" "; inner perimeter\nM204 S1000\n"},{REPLACE "; solid layer\n" "; solid layer\nM204 S1000\n"},{REPLACE "; infill\n" "; infill\nM204 S2000\n"}
;   defaultSpeed,3600
;   outlineUnderspeed,0.6
;   solidInfillUnderspeed,0.6
;   supportUnderspeed,0.8
;   rapidXYspeed,6000
;   rapidZspeed,720
;   minBridgingArea,25
;   bridgingExtraInflation,2
;   bridgingExtrusionMultiplier,0.8
;   bridgingSpeedMultiplier,0.75
;   filamentDiameter,1.75
;   filamentPricePerKg,46
;   filamentDensity,1.25
;   useMinPrintHeight,0
;   minPrintHeight,0
;   useMaxPrintHeight,0
;   maxPrintHeight,0
;   useDiaphragm,0
;   diaphragmLayerInterval,20
;   robustSlicing,1
;   mergeAllIntoSolid,0
;   onlyRetractWhenCrossingOutline,1
;   retractBetweenLayers,1
;   useRetractionMinTravel,1
;   retractionMinTravel,2
;   retractWhileWiping,1
;   onlyWipeOutlines,1
;   avoidCrossingOutline,1
;   maxMovementDetourFactor,3
;   toolChangeRetractionDistance,12
;   toolChangeExtraRestartDistance,-0.5
;   toolChangeRetractionSpeed,600
;   allowThinWallGapFill,1
;   thinWallAllowedOverlapPercentage,20
;   horizontalSizeCompensation,-0.05
G90
M83
M106 S0
M115 U3.0.12 ; tell the printer latest firmware varsion available
M104 S240 T0 ; this will take the layer 1 temperature for extruder 0
M140 S90 ; this will take the layer 1 temperature for bed 0
M190 S90 ; wait for bed temp
M109 S240 T0 ; wait for extruder temp
G28 W ; home all without mesh bed level
G80 ; mesh bed leveling
G1 Y-3.0 F1000.0 ; go outside printing area
G1 X60.0 E9.0  F1000.0 ; intro line
G1 X100.0 E12.5  F1000.0 ; intro line
G1 E-1.0000 F1800
G1 Z0.700 F720
; layer 1, Z = 0.2
T0
; tool H0.200 W0.440
; inner perimeter
M204 S1000
G1 X81.882 Y41.142 F6000
G1 Z0.200 F720
G1 E1.0000 F540
G1 X84.472 Y36.831 E0.1748 F2184
G1 X87.490 Y32.808 E0.1748
G1 X90.906 Y29.117 E0.1748
G1 X94.684 Y25.797 E0.1748
G1 X98.783 Y22.883 E0.1748
G1 X103.160 Y20.406 E0.1748
G1 X107.769 Y18.392 E0.1748
G1 X112.560 Y16.862 E0.1748
G1 X117.483 Y15.833 E0.1748
G1 X122.500 Y15.315 E0.1753
G1 X125.000 Y15.250 E0.0869
G1 X127.500 Y15.315 E0.0869
G1 X132.517 Y15.833 E0.1753
G1 X137.440 Y16.862 E0.1748
G1 X142.231 Y18.392 E0.1748
G1 X146.840 Y20.406 E0.1748
G1 X151.217 Y22.883 E0.1748
G1 X155.316 Y25.797 E0.1748
G1 X159.094 Y29.117 E0.1748
G1 X162.510 Y32.808 E0.1748
G1 X165.528 Y36.831 E0.1748
G1 X168.117 Y41.142 E0.1748
G1 X170.250 Y45.698 E0.1748
G1 X171.902 Y50.448 E0.1748
G1 X173.057 Y55.342 E0.1748
G1 X173.703 Y60.330 E0.1748
G1 X173.832 Y65.358 E0.1748
G1 X173.444 Y70.372 E0.1748
G1 X172.542 Y75.320 E0.1748
G1 X171.137 Y80.149 E0.1748
G1 X169.242 Y84.808 E0.1748
G1 X166.879 Y89.247 E0.1748
G1 X164.071 Y93.420 E0.1748
G1 X160.849 Y97.281 E0.1748
G1 X157.247 Y100.792 E0.1748
G1 X153.304 Y103.913 E0.1748
G1 X149.060 Y106.612 E0.1748
G1 X144.562 Y108.861 E0.1748
G1 X139.856 Y110.635 E0.1748
G1 X134.992 Y111.916 E0.1748
G1 X130.023 Y112.690 E0.1748
G1 X125.000 Y112.948 E0.1748
G1 X119.977 Y112.690 E0.1748
G1 X115.008 Y111.916 E0.1748
G1 X110.144 Y110.635 E0.1748
G1 X105.438 Y108.861 E0.1748
G1 X100.940 Y106.612 E0.1748
G1 X96.696 Y103.913 E0.1748
G1 X92.753 Y100.792 E0.1748
G1 X89.151 Y97.281 E0.1748
G1 X85.929 Y93.419 E0.1748
G1 X83.121 Y89.247 E0.1748
G1 X80.758 Y84.808 E0.1748
G1 X78.863 Y80.149 E0.1748
G1 X77.458 Y75.320 E0.1748
G1 X76.556 Y70.372 E0.1748
G1 X76.168 Y65.358 E0.1748
G1 X76.297 Y60.330 E0.1748
G1 X76.943 Y55.342 E0.1748
G1 X78.098 Y50.448 E0.1748
G1 X79.750 Y45.698 E0.1748
G1 X81.671 Y41.595 E0.1574
G1 X81.882 Y41.142 F2184
; inner perimeter
M204 S1000
G1 X81.494 Y40.935 F6000
G1 X84.106 Y36.585 E0.1764 F1848
G1 X87.152 Y32.526 E0.1764
G1 X90.599 Y28.802 E0.1764
G1 X94.411 Y25.451 E0.1764
G1 X98.547 Y22.511 E0.1764
G1 X102.963 Y20.012 E0.1764
G1 X107.613 Y17.979 E0.1764
G1 X112.448 Y16.436 E0.1764
G1 X117.415 Y15.398 E0.1764
G1 X122.472 Y14.875 E0.1767
G1 X125.000 Y14.810 E0.0879
G1 X127.528 Y14.875 E0.0879
G1 X132.585 Y15.398 E0.1767
G1 X137.552 Y16.436 E0.1764
G1 X142.387 Y17.979 E0.1764
G1 X147.037 Y20.012 E0.1764
G1 X151.453 Y22.511 E0.1764
G1 X155.589 Y25.451 E0.1764
G1 X159.401 Y28.802 E0.1764
G1 X162.848 Y32.526 E0.1764
G1 X165.894 Y36.585 E0.1764
G1 X168.506 Y40.935 E0.1764
G1 X170.658 Y45.532 E0.1764
G1 X172.325 Y50.324 E0.1764
G1 X173.490 Y55.263 E0.1764
G1 X174.142 Y60.296 E0.1764
G1 X174.273 Y65.369 E0.1764
G1 X173.881 Y70.429 E0.1764
G1 X172.971 Y75.421 E0.1764
G1 X171.553 Y80.293 E0.1764
G1 X169.641 Y84.994 E0.1764
G1 X167.256 Y89.474 E0.1764
G1 X164.423 Y93.684 E0.1764
G1 X161.173 Y97.581 E0.1764
G1 X157.538 Y101.123 E0.1764
G1 X153.559 Y104.272 E0.1764
G1 X149.277 Y106.996 E0.1764
G1 X144.738 Y109.264 E0.1764
G1 X139.989 Y111.054 E0.1764
G1 X135.082 Y112.347 E0.1764
G1 X130.068 Y113.128 E0.1764
G1 X125.000 Y113.389 E0.1764
G1 X119.932 Y113.128 E0.1764
G1 X114.918 Y112.347 E0.1764
G1 X110.010 Y111.054 E0.1764
G1 X105.262 Y109.264 E0.1764
G1 X100.723 Y106.996 E0.1764
G1 X96.441 Y104.272 E0.1764
G1 X92.462 Y101.123 E0.1764
G1 X88.827 Y97.581 E0.1764
G1 X85.577 Y93.684 E0.1764
G1 X82.744 Y89.474 E0.1764
G1 X80.359 Y84.994 E0.1764
G1 X78.447 Y80.293 E0.1764
G1 X77.029 Y75.421 E0.1764
G1 X76.119 Y70.429 E0.1764
G1 X75.727 Y65.369 E0.1764
G1 X75.858 Y60.296 E0.1764
G1 X76.510 Y55.263 E0.1764
G1 X77.675 Y50.324 E0.1764
G1 X79.342 Y45.532 E0.1764
G1 X81.282 Y41.388 E0.1590
G1 X81.494 Y40.935 F1848
; outer perimeter
M204 S800
G1 X81.105 Y40.728 F6000
G1 X83.740 Y36.339 E0.1780 F1512
G1 X86.814 Y32.243 E0.1780
G1 X90.291 Y28.486 E0.1780
G1 X94.137 Y25.106 E0.1780
G1 X98.310 Y22.139 E0.1780
G1 X102.766 Y19.618 E0.1780
G1 X107.458 Y17.567 E0.1780
G1 X112.335 Y16.010 E0.1780
G1 X117.347 Y14.963 E0.1780
G1 X122.443 Y14.436 E0.1781
G1 X125.000 Y14.370 E0.0889
G1 X127.557 Y14.436 E0.0889
G1 X132.653 Y14.963 E0.1781
G1 X137.665 Y16.010 E0.1780
G1 X142.542 Y17.567 E0.1780
G1 X147.234 Y19.618 E0.1780
G1 X151.690 Y22.139 E0.1780
G1 X155.863 Y25.106 E0.1780
G1 X159.709 Y28.486 E0.1780
G1 X163.186 Y32.243 E0.1780
G1 X166.259 Y36.339 E0.1780
G1 X168.895 Y40.728 E0.1780
G1 X171.066 Y45.365 E0.1780
G1 X172.748 Y50.201 E0.1780
G1 X173.924 Y55.184 E0.1780
G1 X174.581 Y60.262 E0.1780
G1 X174.713 Y65.380 E0.1780
G1 X174.318 Y70.485 E0.1780
G1 X173.400 Y75.522 E0.1780
G1 X171.969 Y80.438 E0.1780
G1 X170.040 Y85.181 E0.1780
G1 X167.634 Y89.701 E0.1780
G1 X164.776 Y93.948 E0.1780
G1 X161.496 Y97.880 E0.1780
G1 X157.829 Y101.454 E0.1780
G1 X153.814 Y104.631 E0.1780
G1 X149.494 Y107.379 E0.1780
G1 X144.915 Y109.668 E0.1780
G1 X140.123 Y111.474 E0.1780
G1 X135.172 Y112.778 E0.1780
G1 X130.113 Y113.566 E0.1780
G1 X125.000 Y113.830 E0.1780
G1 X119.887 Y113.566 E0.1780
G1 X114.828 Y112.778 E0.1780
G1 X109.877 Y111.474 E0.1780
G1 X105.085 Y109.668 E0.1780
G1 X100.506 Y107.379 E0.1780
G1 X96.186 Y104.631 E0.1780
G1 X92.171 Y101.454 E0.1780
G1 X88.504 Y97.880 E0.1780
G1 X85.224 Y93.948 E0.1780
G1 X82.366 Y89.701 E0.1780
G1 X79.960 Y85.181 E0.1780
G1 X78.031 Y80.438 E0.1780
G1 X76.600 Y75.522 E0.1780
G1 X75.682 Y70.485 E0.1780
G1 X75.287 Y65.380 E0.1780
G1 X75.419 Y60.262 E0.1780
G1 X76.076 Y55.184 E0.1780
G1 X77.252 Y50.201 E0.1780
G1 X78.934 Y45.365 E0.1780
G1 X80.893 Y41.181 E0.1606
G1 X81.105 Y40.728 F1512
G1 X82.134 Y39.014 F3600
; inner perimeter
M204 S1000
G1 X87.802 Y46.448 F6000
G1 X88.624 Y47.137 E0.0373 F2184
G1 X87.568 Y46.951 E0.0373
G1 X86.405 Y49.757 E0.1056
G1 X87.284 Y50.372 E0.0373
G1 X86.215 Y50.279 E0.0373
G1 X85.302 Y53.176 E0.1056
G1 X86.231 Y53.712 E0.0373
G1 X85.158 Y53.712 E0.0373
G1 X84.501 Y56.677 E0.1056
G1 X85.473 Y57.130 E0.0373
G1 X84.405 Y57.224 E0.0373
G1 X84.008 Y60.235 E0.1056
G1 X85.016 Y60.602 E0.0373
G1 X83.960 Y60.788 E0.0373
G1 X83.827 Y63.822 E0.1056
G1 X84.863 Y64.100 E0.0373
G1 X83.827 Y64.378 E0.0373
G1 X83.960 Y67.412 E0.1056
G1 X85.016 Y67.598 E0.0373
G1 X84.008 Y67.965 E0.0373
G1 X84.405 Y70.976 E0.1056
G1 X85.473 Y71.070 E0.0373
G1 X84.501 Y71.523 E0.0373
G1 X85.158 Y74.488 E0.1056
G1 X86.231 Y74.488 E0.0373
G1 X85.302 Y75.024 E0.0373
G1 X86.215 Y77.921 E0.1056
G1 X87.284 Y77.828 E0.0373
G1 X86.405 Y78.443 E0.0373
G1 X87.568 Y81.249 E0.1056
G1 X88.624 Y81.063 E0.0373
G1 X87.802 Y81.752 E0.0373
G1 X89.205 Y84.446 E0.1056
G1 X90.240 Y84.168 E0.0373
G1 X89.482 Y84.927 E0.0373
G1 X91.114 Y87.488 E0.1056
G1 X92.122 Y87.122 E0.0373
G1 X91.433 Y87.943 E0.0373
G1 X93.282 Y90.353 E0.1056
G1 X94.253 Y89.900 E0.0373
G1 X93.638 Y90.778 E0.0373
G1 X95.690 Y93.017 E0.1056
G1 X96.619 Y92.481 E0.0373
G1 X96.083 Y93.410 E0.0373
G1 X98.322 Y95.462 E0.1056
G1 X99.200 Y94.847 E0.0373
G1 X98.747 Y95.818 E0.0373
G1 X101.157 Y97.667 E0.1056
G1 X101.978 Y96.978 E0.0373
G1 X101.612 Y97.986 E0.0373
G1 X104.173 Y99.618 E0.1056
G1 X104.932 Y98.860 E0.0373
G1 X104.654 Y99.895 E0.0373
G1 X107.348 Y101.298 E0.1056
G1 X108.037 Y100.476 E0.0373
G1 X107.851 Y101.532 E0.0373
G1 X110.657 Y102.695 E0.1056
G1 X111.272 Y101.816 E0.0373
G1 X111.179 Y102.885 E0.0373
G1 X114.076 Y103.798 E0.1056
G1 X114.612 Y102.869 E0.0373
G1 X114.612 Y103.942 E0.0373
G1 X117.577 Y104.599 E0.1056
G1 X118.030 Y103.627 E0.0373
G1 X118.124 Y104.695 E0.0373
G1 X121.135 Y105.092 E0.1056
G1 X121.502 Y104.084 E0.0373
G1 X121.688 Y105.140 E0.0373
G1 X124.722 Y105.273 E0.1056
G1 X125.000 Y104.237 E0.0373
G1 X125.278 Y105.273 E0.0373
G1 X128.312 Y105.140 E0.1056
G1 X128.498 Y104.084 E0.0373
G1 X128.865 Y105.092 E0.0373
G1 X131.876 Y104.695 E0.1056
G1 X131.970 Y103.627 E0.0373
G1 X132.423 Y104.599 E0.0373
G1 X135.388 Y103.942 E0.1056
G1 X135.388 Y102.869 E0.0373
G1 X135.924 Y103.798 E0.0373
G1 X138.821 Y102.885 E0.1056
G1 X138.728 Y101.816 E0.0373
G1 X139.343 Y102.695 E0.0373
G1 X142.149 Y101.532 E0.1056
G1 X141.963 Y100.476 E0.0373
G1 X142.652 Y101.298 E0.0373
G1 X145.346 Y99.895 E0.1056
G1 X145.068 Y98.860 E0.0373
G1 X145.827 Y99.618 E0.0373
G1 X148.388 Y97.986 E0.1056
G1 X148.022 Y96.978 E0.0373
G1 X148.843 Y97.667 E0.0373
G1 X151.253 Y95.818 E0.1056
G1 X150.799 Y94.847 E0.0373
G1 X151.678 Y95.462 E0.0373
G1 X153.917 Y93.410 E0.1056
G1 X153.381 Y92.481 E0.0373
G1 X154.310 Y93.017 E0.0373
G1 X156.362 Y90.778 E0.1056
G1 X155.747 Y89.899 E0.0373
G1 X156.718 Y90.353 E0.0373
G1 X158.567 Y87.943 E0.1056
G1 X157.878 Y87.122 E0.0373
G1 X158.886 Y87.488 E0.0373
G1 X160.518 Y84.927 E0.1056
G1 X159.760 Y84.168 E0.0373
G1 X160.795 Y84.446 E0.0373
G1 X162.198 Y81.752 E0.1056
G1 X161.376 Y81.063 E0.0373
G1 X162.432 Y81.249 E0.0373
G1 X163.595 Y78.443 E0.1056
G1 X162.716 Y77.828 E0.0373
G1 X163.785 Y77.921 E0.0373
G1 X164.698 Y75.024 E0.1056
G1 X163.769 Y74.488 E0.0373
G1 X164.842 Y74.488 E0.0373
G1 X165.499 Y71.523 E0.1056
G1 X164.527 Y71.070 E0.0373
G1 X165.595 Y70.976 E0.0373
G1 X165.992 Y67.965 E0.1056
G1 X164.984 Y67.598 E0.0373
G1 X166.040 Y67.412 E0.0373
G1 X166.173 Y64.378 E0.1056
G1 X165.137 Y64.100 E0.0373
G1 X166.173 Y63.822 E0.0373
G1 X166.040 Y60.788 E0.1056
G1 X164.984 Y60.602 E0.0373
G1 X165.992 Y60.235 E0.0373
G1 X165.595 Y57.224 E0.1056
G1 X164.527 Y57.130 E0.0373
G1 X165.499 Y56.677 E0.0373
G1 X164.842 Y53.712 E0.1056
G1 X163.769 Y53.712 E0.0373
G1 X164.698 Y53.176 E0.0373
G1 X163.785 Y50.279 E0.1056
G1 X162.716 Y50.372 E0.0373
G1 X163.595 Y49.757 E0.0373
G1 X162.432 Y46.951 E0.1056
G1 X161.376 Y47.137 E0.0373
G1 X162.198 Y46.448 E0.0373
G1 X160.795 Y43.754 E0.1056
G1 X159.760 Y44.032 E0.0373
G1 X160.518 Y43.273 E0.0373
G1 X158.886 Y40.712 E0.1056
G1 X157.878 Y41.078 E0.0373
