; G-Code generated by Simplify3D(R) Version 3.1.1
; Mar 26, 2018 at 10:30:39 AM
; Settings Summary
;   processName,Prusa i3 Mk2S
;   applyToModels,Rotor_2,Rotor_1
;   profileName,Default (modified)
;   profileVersion,2017-07-16 09:26:29
;   baseProfile,Default
;   printMaterial,PETg
;   printQuality,Normal 0.2
;   printExtruders,
;   extruderName,Primary Extruder
;   extruderToolheadNumber,0
;   extruderDiameter,0.4
;   extruderAutoWidth,0
;   extruderWidth,0.44
;   extrusionMultiplier,0.95
;   extruderUseRetract,1
;   extruderRetractionDistance,1
;   extruderExtraRestartDistance,0
;   extruderRetractionZLift,0.5
;   extruderRetractionSpeed,1800
;   extruderUseCoasting,1
;   extruderCoastingDistance,0.5
;   extruderUseWipe,1
;   extruderWipeDistance,2
;   primaryExtruder,0
;   layerHeight,0.2
;   topSolidLayers,5
;   bottomSolidLayers,4
;   perimeterOutlines,3
;   printPerimetersInsideOut,1
;   startPointOption,2
;   startPointOriginX,230
;   startPointOriginY,0
;   startPointOriginZ,210
;   sequentialIslands,0
;   spiralVaseMode,0
;   firstLayerHeightPercentage,100
;   firstLayerWidthPercentage,100
;   firstLayerUnderspeed,0.7
;   useRaft,0
;   raftExtruder,0
;   raftLayers,3
;   raftOffset,3
;   raftSeparationDistance,0.14
;   raftInfill,85
;   disableRaftBaseLayers,0
;   useSkirt,0
;   skirtExtruder,0
;   skirtLayers,1
;   skirtOutlines,5
;   skirtOffset,0
;   usePrimePillar,0
;   primePillarExtruder,999
;   primePillarWidth,12
;   primePillarLocation,7
;   primePillarSpeedMultiplier,1
;   useOozeShield,0
;   oozeShieldExtruder,999
;   oozeShieldOffset,2
;   oozeShieldOutlines,1
;   oozeShieldSidewallShape,1
;   oozeShieldSidewallAngle,30
;   oozeShieldSpeedMultiplier,1
;   infillExtruder,0
;   internalInfillPattern,Grid
;   externalInfillPattern,Rectilinear
;   infillPercentage,40
;   outlineOverlapPercentage,25
;   infillExtrusionWidthPercentage,100
;   minInfillLength,2
;   infillLayerInterval,1
;   infillAngles,45,-45
;   overlapInfillAngles,1
;   generateSupport,0
;   supportExtruder,0
;   supportInfillPercentage,25
;   supportExtraInflation,0.2
;   denseSupportLayers,0
;   denseSupportInfillPercentage,75
;   supportLayerInterval,1
;   supportHorizontalPartOffset,0.25
;   supportUpperSeparationLayers,1
;   supportLowerSeparationLayers,1
;   supportType,0
;   supportGridSpacing,4
;   maxOverhangAngle,0
;   supportAngles,0,90
;   temperatureName,Primary Extruder,Heated Bed
;   temperatureNumber,0,1
;   temperatureSetpointCount,2,1
;   temperatureSetpointLayers,1,1,1
;   temperatureSetpointTemperatures,240,235,90
;   temperatureStabilizeAtStartup,1,1
;   temperatureHeatedBed,0,1
;   temperatureRelayBetweenLayers,0,0
;   temperatureRelayBetweenLoops,0,0
;   fanLayers,1,4
;   fanSpeeds,0,100
;   blipFanToFullPower,1
;   adjustSpeedForCooling,1
;   minSpeedLayerTime,12
;   minCoolingSpeedSlowdown,15
;   increaseFanForCooling,0
;   minFanLayerTime,45
;   maxCoolingFanSpeed,100
;   increaseFanForBridging,1
;   bridgingFanSpeed,100
;   use5D,1
;   relativeEdistances,1
;   allowEaxisZeroing,1
;   independentExtruderAxes,0
;   includeM10123,0
;   stickySupport,1
;   applyToolheadOffsets,0
;   gcodeXoffset,0
;   gcodeYoffset,0
;   gcodeZoffset,0
;   overrideMachineDefinition,1
;   machineTypeOverride,0
;   strokeXoverride,250
;   strokeYoverride,210
;   strokeZoverride,200
;   originOffsetXoverride,0
;   originOffsetYoverride,0
;   originOffsetZoverride,0
;   homeXdirOverride,-1
;   homeYdirOverride,-1
;   homeZdirOverride,-1
;   flipXoverride,1
;   flipYoverride,-1
;   flipZoverride,1
;   toolheadOffsets,0,0|0,0|0,0|0,0|0,0|0,0
;   overrideFirmwareConfiguration,0
;   firmwareTypeOverride,RepRap (Marlin/Repetier/Sprinter)
;   GPXconfigOverride,r2
;   baudRateOverride,115200
;   overridePrinterModels,0
;   printerModelsOverride
;   startingGcode,M115 U3.0.12 ; tell the printer latest firmware varsion available,M104 S[extruder0_temperature] T0 ; this will take the layer 1 temperature for extruder 0,M140 S[bed1_temperature] ; this will take the layer 1 temperature for bed 0,M190 S[bed1_temperature] ; wait for bed temp,M109 S[extruder0_temperature] T0 ; wait for extruder temp,G28 W ; home all without mesh bed level,G80 ; mesh bed leveling,G1 Y-3.0 F1000.0 ; go outside printing area,G1 X60.0 E9.0  F1000.0 ; intro line,G1 X100.0 E12.5  F1000.0 ; intro line,
;   layerChangeGcode,
;   retractionGcode,
;   toolChangeGcode,
;   endingGcode,M104 S0 ; turn off extruder,M140 S0 ; turn off bed,M107 ; turn off fan,G1 X0 Y200; home X axis,M84 ; disable motors
;   exportFileFormat,gcode
;   celebration,0
;   celebrationSong,Random Song
;   postProcessing,{REPLACE "; outer perimeter\n" "; outer perimeter\nM204 S800\n"},{REPLACE "; inner perimeter\n" "; inner perimeter\nM204 S1000\n"},{REPLACE "; solid layer\n" "; solid layer\nM204 S1000\n"},{REPLACE "; infill\n" "; infill\nM204 S2000\n"}
;   defaultSpeed,3600
;   outlineUnderspeed,0.6
;   solidInfillUnderspeed,0.6
;   supportUnderspeed,0.8
;   rapidXYspeed,6000
;   rapidZspeed,720
;   minBridgingArea,25
;   bridgingExtraInflation,2
;   bridgingExtrusionMultiplier,0.8
;   bridgingSpeedMultiplier,0.75
;   filamentDiameter,1.75
;   filamentPricePerKg,46
;   filamentDensity,1.25
;   useMinPrintHeight,0
;   minPrintHeight,0
;   useMaxPrintHeight,0
;   maxPrintHeight,0
;   useDiaphragm,0
;   diaphragmLayerInterval,20
;   robustSlicing,1
;   mergeAllIntoSolid,0
;   onlyRetractWhenCrossingOutline,1
;   retractBetweenLayers,1
;   useRetractionMinTravel,1
;   retractionMinTravel,2
;   retractWhileWiping,1
;   onlyWipeOutlines,1
;   avoidCrossingOutline,1
;   maxMovementDetourFactor,3
;   toolChangeRetractionDistance,12
;   toolChangeExtraRestartDistance,-0.5
;   toolChangeRetractionSpeed,600
;   allowThinWallGapFill,1
;   thinWallAllowedOverlapPercentage,20
;   horizontalSizeCompensation,-0.05
G90
M83
M106 S0
M115 U3.0.12 ; tell the printer latest firmware varsion available
M104 S240 T0 ; this will take the layer 1 temperature for extruder 0
M140 S90 ; this will take the layer 1 temperature for bed 0
M190 S90 ; wait for bed temp
M109 S240 T0 ; wait for extruder temp
G28 W ; home all without mesh bed level
G80 ; mesh bed leveling
G1 Y-3.0 F1000.0 ; go outside printing area
G1 X60.0 E9.0  F1000.0 ; intro line
G1 X100.0 E12.5  F1000.0 ; intro line
G1 E-1.0000 F1800
G1 Z0.700 F720
; layer 1, Z = 0.2
T0
; tool H0.200 W0.440
; inner perimeter
M204 S1000
G1 X92.011 Y38.433 F6000
G1 Z0.200 F720
G1 E1.0000 F540
G1 X92.695 Y37.316 E0.0455 F2184
G1 X93.545 Y36.320 E0.0455
G1 X94.541 Y35.469 E0.0455
G1 X95.658 Y34.785 E0.0455
G1 X96.868 Y34.284 E0.0455
G1 X98.142 Y33.978 E0.0455
G1 X99.493 Y33.872 E0.0471
G1 X147.402 Y33.872 E1.6652
G1 X148.753 Y33.978 E0.0471
G1 X150.027 Y34.284 E0.0455
G1 X151.237 Y34.785 E0.0455
G1 X152.353 Y35.469 E0.0455
G1 X153.349 Y36.320 E0.0455
G1 X154.200 Y37.316 E0.0455
G1 X154.884 Y38.433 E0.0455
G1 X155.385 Y39.643 E0.0455
G1 X155.691 Y40.916 E0.0455
G1 X155.794 Y42.222 E0.0455
G1 X155.691 Y43.528 E0.0455
G1 X155.385 Y44.801 E0.0455
G1 X154.884 Y46.011 E0.0455
G1 X154.200 Y47.128 E0.0455
G1 X153.349 Y48.124 E0.0455
G1 X152.353 Y48.974 E0.0455
G1 X151.236 Y49.659 E0.0455
G1 X150.027 Y50.160 E0.0455
G1 X148.753 Y50.466 E0.0455
G1 X147.402 Y50.572 E0.0471
G1 X99.493 Y50.572 E1.6652
G1 X98.142 Y50.466 E0.0471
G1 X96.868 Y50.160 E0.0455
G1 X95.658 Y49.659 E0.0455
G1 X94.541 Y48.974 E0.0455
G1 X93.545 Y48.124 E0.0455
G1 X92.695 Y47.128 E0.0455
G1 X92.011 Y46.011 E0.0455
G1 X91.509 Y44.801 E0.0455
G1 X91.204 Y43.528 E0.0455
G1 X91.101 Y42.222 E0.0455
G1 X91.204 Y40.916 E0.0455
G1 X91.509 Y39.643 E0.0455
G1 X91.819 Y38.895 E0.0281
G1 X92.011 Y38.433 F2184
; inner perimeter
M204 S1000
G1 X91.617 Y38.232 F6000
G1 X92.338 Y37.056 E0.0479 F1848
G1 X93.233 Y36.008 E0.0479
G1 X94.282 Y35.112 E0.0479
G1 X95.458 Y34.392 E0.0479
G1 X96.732 Y33.864 E0.0479
G1 X98.073 Y33.542 E0.0479
G1 X99.475 Y33.432 E0.0489
G1 X147.419 Y33.432 E1.6664
G1 X148.822 Y33.542 E0.0489
G1 X150.163 Y33.864 E0.0479
G1 X151.437 Y34.392 E0.0479
G1 X152.613 Y35.112 E0.0479
G1 X153.661 Y36.008 E0.0479
G1 X154.557 Y37.057 E0.0479
G1 X155.277 Y38.232 E0.0479
G1 X155.805 Y39.506 E0.0479
G1 X156.127 Y40.847 E0.0479
G1 X156.235 Y42.222 E0.0479
G1 X156.127 Y43.597 E0.0479
G1 X155.805 Y44.938 E0.0479
G1 X155.277 Y46.211 E0.0479
G1 X154.557 Y47.387 E0.0479
G1 X153.661 Y48.436 E0.0479
G1 X152.613 Y49.331 E0.0479
G1 X151.437 Y50.052 E0.0479
G1 X150.163 Y50.580 E0.0479
G1 X148.822 Y50.901 E0.0479
G1 X147.419 Y51.012 E0.0489
G1 X99.475 Y51.012 E1.6664
G1 X98.073 Y50.901 E0.0489
G1 X96.732 Y50.580 E0.0479
G1 X95.458 Y50.052 E0.0479
G1 X94.282 Y49.331 E0.0479
G1 X93.233 Y48.436 E0.0479
G1 X92.338 Y47.387 E0.0479
G1 X91.617 Y46.211 E0.0479
G1 X91.090 Y44.938 E0.0479
G1 X90.768 Y43.597 E0.0479
G1 X90.660 Y42.222 E0.0479
G1 X90.768 Y40.847 E0.0479
G1 X91.090 Y39.506 E0.0479
G1 X91.426 Y38.694 E0.0305
G1 X91.617 Y38.232 F1848
; outer perimeter
M204 S800
G1 X91.224 Y38.032 F6000
G1 X91.981 Y36.797 E0.0503 F1512
G1 X92.921 Y35.696 E0.0503
G1 X94.023 Y34.755 E0.0503
G1 X95.257 Y33.999 E0.0503
G1 X96.595 Y33.444 E0.0503
G1 X98.004 Y33.106 E0.0503
G1 X99.458 Y32.992 E0.0507
G1 X147.437 Y32.992 E1.6676
G1 X148.891 Y33.106 E0.0507
G1 X150.299 Y33.444 E0.0503
G1 X151.637 Y33.999 E0.0503
G1 X152.872 Y34.755 E0.0503
G1 X153.973 Y35.696 E0.0503
G1 X154.914 Y36.797 E0.0503
G1 X155.671 Y38.032 E0.0503
G1 X156.225 Y39.370 E0.0503
G1 X156.563 Y40.778 E0.0503
G1 X156.676 Y42.222 E0.0503
G1 X156.563 Y43.666 E0.0503
G1 X156.225 Y45.074 E0.0503
G1 X155.671 Y46.412 E0.0503
G1 X154.914 Y47.647 E0.0503
G1 X153.973 Y48.748 E0.0503
G1 X152.872 Y49.688 E0.0503
G1 X151.637 Y50.445 E0.0503
G1 X150.299 Y50.999 E0.0503
G1 X148.891 Y51.337 E0.0503
G1 X147.437 Y51.452 E0.0507
G1 X99.458 Y51.452 E1.6676
G1 X98.004 Y51.337 E0.0507
G1 X96.595 Y50.999 E0.0503
G1 X95.257 Y50.445 E0.0503
G1 X94.023 Y49.688 E0.0503
G1 X92.921 Y48.748 E0.0503
G1 X91.981 Y47.647 E0.0503
G1 X91.224 Y46.412 E0.0503
G1 X90.670 Y45.074 E0.0503
G1 X90.332 Y43.666 E0.0503
G1 X90.218 Y42.222 E0.0503
G1 X90.332 Y40.778 E0.0503
G1 X90.670 Y39.370 E0.0503
G1 X91.033 Y38.494 E0.0330
G1 X91.224 Y38.032 F1512
G1 X91.981 Y36.797 F3600
G1 X92.339 Y36.378 F3600
; inner perimeter
M204 S1000
G1 X94.715 Y39.827 F6000
G1 X94.378 Y40.662 E0.0313 F2184
G1 X94.188 Y41.541 E0.0313
G1 X94.148 Y42.439 E0.0313
G1 X94.261 Y43.332 E0.0313
G1 X94.523 Y44.192 E0.0313
G1 X94.927 Y44.996 E0.0313
G1 X95.461 Y45.720 E0.0313
G1 X96.114 Y46.348 E0.0315
G1 X96.855 Y46.849 E0.0311
G1 X97.673 Y47.220 E0.0312
G1 X98.544 Y47.448 E0.0313
G1 X99.447 Y47.526 E0.0315
G1 X100.337 Y47.450 E0.0311
G1 X101.207 Y47.225 E0.0312
G1 X102.027 Y46.856 E0.0313
G1 X102.773 Y46.353 E0.0313
G1 X103.424 Y45.732 E0.0313
G1 X103.960 Y45.009 E0.0313
G1 X104.369 Y44.200 E0.0315
G1 X104.630 Y43.346 E0.0311
G1 X104.747 Y42.448 E0.0315
G1 X104.709 Y41.555 E0.0311
G1 X104.521 Y40.676 E0.0312
G1 X104.187 Y39.841 E0.0313
G1 X103.716 Y39.074 E0.0313
G1 X103.123 Y38.398 E0.0313
G1 X102.424 Y37.832 E0.0313
G1 X101.633 Y37.389 E0.0315
G1 X100.790 Y37.091 E0.0311
G1 X99.905 Y36.938 E0.0312
G1 X99.005 Y36.937 E0.0313
G1 X98.118 Y37.087 E0.0313
G1 X97.270 Y37.386 E0.0313
G1 X96.477 Y37.827 E0.0315
G1 X95.773 Y38.398 E0.0315
G1 X95.187 Y39.063 E0.0308
G1 X94.978 Y39.402 E0.0139
G1 X94.715 Y39.827 F2184
; inner perimeter
M204 S1000
G1 X95.109 Y40.027 F6000
G1 X94.800 Y40.792 E0.0287 F1848
G1 X94.626 Y41.597 E0.0287
G1 X94.589 Y42.421 E0.0287
G1 X94.693 Y43.239 E0.0287
G1 X94.933 Y44.028 E0.0287
G1 X95.304 Y44.765 E0.0287
G1 X95.793 Y45.429 E0.0287
G1 X96.392 Y46.005 E0.0289
G1 X97.071 Y46.463 E0.0285
G1 X97.821 Y46.804 E0.0286
G1 X98.619 Y47.013 E0.0287
G1 X99.447 Y47.084 E0.0289
G1 X100.263 Y47.015 E0.0285
G1 X101.061 Y46.809 E0.0286
G1 X101.812 Y46.470 E0.0287
G1 X102.496 Y46.009 E0.0287
G1 X103.093 Y45.439 E0.0287
G1 X103.584 Y44.777 E0.0287
G1 X103.959 Y44.035 E0.0289
G1 X104.199 Y43.253 E0.0285
G1 X104.306 Y42.429 E0.0289
G1 X104.271 Y41.611 E0.0285
G1 X104.098 Y40.805 E0.0286
G1 X103.792 Y40.039 E0.0287
G1 X103.361 Y39.336 E0.0287
G1 X102.817 Y38.716 E0.0287
G1 X102.176 Y38.197 E0.0287
G1 X101.451 Y37.791 E0.0289
G1 X100.679 Y37.518 E0.0285
G1 X99.867 Y37.378 E0.0286
G1 X99.042 Y37.377 E0.0287
G1 X98.229 Y37.515 E0.0287
G1 X97.451 Y37.789 E0.0287
G1 X96.724 Y38.193 E0.0289
G1 X96.079 Y38.716 E0.0289
G1 X95.542 Y39.326 E0.0282
G1 X95.372 Y39.601 E0.0113
G1 X95.109 Y40.027 F1848
; outer perimeter
M204 S800
G1 X95.503 Y40.226 F6000
G1 X95.222 Y40.921 E0.0261 F1512
G1 X95.063 Y41.654 E0.0261
G1 X95.031 Y42.403 E0.0261
G1 X95.125 Y43.147 E0.0261
G1 X95.343 Y43.864 E0.0261
G1 X95.680 Y44.534 E0.0261
G1 X96.125 Y45.138 E0.0261
G1 X96.670 Y45.661 E0.0263
G1 X97.286 Y46.078 E0.0259
G1 X97.969 Y46.388 E0.0261
G1 X98.694 Y46.578 E0.0261
G1 X99.447 Y46.643 E0.0263
G1 X100.188 Y46.580 E0.0259
G1 X100.914 Y46.392 E0.0261
G1 X101.598 Y46.084 E0.0261
G1 X102.219 Y45.665 E0.0261
G1 X102.761 Y45.147 E0.0261
G1 X103.208 Y44.545 E0.0261
G1 X103.549 Y43.870 E0.0263
G1 X103.767 Y43.159 E0.0259
G1 X103.864 Y42.410 E0.0263
G1 X103.833 Y41.666 E0.0259
G1 X103.676 Y40.933 E0.0261
G1 X103.397 Y40.237 E0.0261
G1 X103.005 Y39.598 E0.0261
G1 X102.511 Y39.035 E0.0261
G1 X101.928 Y38.563 E0.0261
G1 X101.269 Y38.193 E0.0263
G1 X100.567 Y37.946 E0.0259
G1 X99.829 Y37.818 E0.0261
G1 X99.079 Y37.817 E0.0261
G1 X98.340 Y37.942 E0.0261
G1 X97.632 Y38.191 E0.0261
G1 X96.972 Y38.559 E0.0263
G1 X96.384 Y39.035 E0.0263
G1 X95.897 Y39.588 E0.0256
G1 X95.766 Y39.801 E0.0087
G1 X95.503 Y40.226 F1512
G1 X95.222 Y40.921 F3600
G1 X95.063 Y41.654 F3600
G1 X95.042 Y42.154 F3600
; inner perimeter
M204 S1000
G1 X95.046 Y42.154 F6000
G1 X95.068 Y41.655 F6000
G1 X95.227 Y40.923 F6000
G1 X95.507 Y40.228 F6000
G1 X95.900 Y39.591 F6000
G1 X96.387 Y39.038 F6000
G1 X96.974 Y38.563 F6000
G1 X97.634 Y38.195 F6000
G1 X98.341 Y37.947 F6000
G1 X99.079 Y37.821 F6000
G1 X99.828 Y37.822 F6000
G1 X100.566 Y37.950 F6000
G1 X101.267 Y38.197 F6000
G1 X101.925 Y38.567 F6000
G1 X102.508 Y39.038 F6000
G1 X103.002 Y39.601 F6000
G1 X103.393 Y40.239 F6000
G1 X103.672 Y40.935 F6000
G1 X103.828 Y41.667 F6000
G1 X103.832 Y41.741 F6000
G1 X119.475 Y41.005 F6000
G1 X119.327 Y41.694 E0.0245 F2184
G1 X119.297 Y42.398 E0.0245
G1 X119.386 Y43.097 E0.0245
G1 X119.593 Y43.771 E0.0245
G1 X119.910 Y44.400 E0.0245
G1 X120.329 Y44.966 E0.0245
G1 X120.838 Y45.454 E0.0245
G1 X121.421 Y45.849 E0.0245
G1 X122.063 Y46.139 E0.0245
G1 X122.745 Y46.316 E0.0245
G1 X123.447 Y46.376 E0.0245
G1 X124.149 Y46.316 E0.0245
G1 X124.831 Y46.139 E0.0245
G1 X125.473 Y45.849 E0.0245
G1 X126.057 Y45.454 E0.0245
G1 X126.566 Y44.966 E0.0245
G1 X126.985 Y44.400 E0.0245
G1 X127.302 Y43.771 E0.0245
G1 X127.508 Y43.097 E0.0245
G1 X127.598 Y42.398 E0.0245
G1 X127.568 Y41.694 E0.0245
G1 X127.419 Y41.005 E0.0245
G1 X127.157 Y40.352 E0.0245
G1 X126.787 Y39.752 E0.0245
G1 X126.322 Y39.223 E0.0245
G1 X125.774 Y38.780 E0.0245
G1 X125.158 Y38.437 E0.0245
G1 X124.494 Y38.202 E0.0245
G1 X123.800 Y38.083 E0.0245
G1 X123.095 Y38.083 E0.0245
G1 X122.401 Y38.202 E0.0245
G1 X121.736 Y38.437 E0.0245
G1 X121.121 Y38.780 E0.0245
G1 X120.573 Y39.223 E0.0245
G1 X120.107 Y39.752 E0.0245
G1 X119.738 Y40.352 E0.0245
G1 X119.662 Y40.541 E0.0071
G1 X119.475 Y41.005 F2184
; inner perimeter
M204 S1000
G1 X119.898 Y41.135 F6000
G1 X119.765 Y41.750 E0.0219 F1848
G1 X119.738 Y42.379 E0.0219
G1 X119.818 Y43.004 E0.0219
G1 X120.002 Y43.606 E0.0219
G1 X120.286 Y44.168 E0.0219
G1 X120.660 Y44.675 E0.0219
G1 X121.115 Y45.110 E0.0219
G1 X121.637 Y45.463 E0.0219
G1 X122.211 Y45.722 E0.0219
G1 X122.820 Y45.881 E0.0219
G1 X123.447 Y45.934 E0.0219
G1 X124.075 Y45.881 E0.0219
G1 X124.684 Y45.722 E0.0219
G1 X125.258 Y45.463 E0.0219
G1 X125.780 Y45.110 E0.0219
G1 X126.234 Y44.675 E0.0219
G1 X126.609 Y44.168 E0.0219
G1 X126.892 Y43.606 E0.0219
G1 X127.077 Y43.004 E0.0219
G1 X127.157 Y42.379 E0.0219
G1 X127.130 Y41.750 E0.0219
G1 X126.997 Y41.135 E0.0219
G1 X126.762 Y40.550 E0.0219
G1 X126.432 Y40.014 E0.0219
G1 X126.016 Y39.542 E0.0219
G1 X125.526 Y39.146 E0.0219
G1 X124.977 Y38.839 E0.0219
