; G-Code generated by Simplify3D(R) Version 3.1.1
; Mar 25, 2018 at 12:31:29 PM
; Settings Summary
;   processName,Prusa i3 Mk2S
;   applyToModels,Rotor
;   profileName,Default (modified)
;   profileVersion,2017-07-16 09:26:29
;   baseProfile,Default
;   printMaterial,PLA
;   printQuality,Normal 0.2
;   printExtruders,
;   extruderName,Primary Extruder
;   extruderToolheadNumber,0
;   extruderDiameter,0.4
;   extruderAutoWidth,0
;   extruderWidth,0.44
;   extrusionMultiplier,0.95
;   extruderUseRetract,1
;   extruderRetractionDistance,1
;   extruderExtraRestartDistance,0
;   extruderRetractionZLift,0.5
;   extruderRetractionSpeed,1800
;   extruderUseCoasting,1
;   extruderCoastingDistance,0.5
;   extruderUseWipe,1
;   extruderWipeDistance,2
;   primaryExtruder,0
;   layerHeight,0.2
;   topSolidLayers,5
;   bottomSolidLayers,4
;   perimeterOutlines,3
;   printPerimetersInsideOut,1
;   startPointOption,2
;   startPointOriginX,230
;   startPointOriginY,0
;   startPointOriginZ,210
;   sequentialIslands,0
;   spiralVaseMode,0
;   firstLayerHeightPercentage,100
;   firstLayerWidthPercentage,100
;   firstLayerUnderspeed,0.7
;   useRaft,0
;   raftExtruder,0
;   raftLayers,3
;   raftOffset,3
;   raftSeparationDistance,0.14
;   raftInfill,85
;   disableRaftBaseLayers,0
;   useSkirt,0
;   skirtExtruder,0
;   skirtLayers,1
;   skirtOutlines,5
;   skirtOffset,0
;   usePrimePillar,0
;   primePillarExtruder,999
;   primePillarWidth,12
;   primePillarLocation,7
;   primePillarSpeedMultiplier,1
;   useOozeShield,0
;   oozeShieldExtruder,999
;   oozeShieldOffset,2
;   oozeShieldOutlines,1
;   oozeShieldSidewallShape,1
;   oozeShieldSidewallAngle,30
;   oozeShieldSpeedMultiplier,1
;   infillExtruder,0
;   internalInfillPattern,Grid
;   externalInfillPattern,Rectilinear
;   infillPercentage,40
;   outlineOverlapPercentage,25
;   infillExtrusionWidthPercentage,100
;   minInfillLength,2
;   infillLayerInterval,1
;   infillAngles,45,-45
;   overlapInfillAngles,1
;   generateSupport,1
;   supportExtruder,0
;   supportInfillPercentage,25
;   supportExtraInflation,0.2
;   denseSupportLayers,0
;   denseSupportInfillPercentage,75
;   supportLayerInterval,1
;   supportHorizontalPartOffset,0.25
;   supportUpperSeparationLayers,1
;   supportLowerSeparationLayers,1
;   supportType,0
;   supportGridSpacing,4
;   maxOverhangAngle,0
;   supportAngles,0,90
;   temperatureName,Primary Extruder,Heated Bed
;   temperatureNumber,0,1
;   temperatureSetpointCount,2,1
;   temperatureSetpointLayers,1,2,1
;   temperatureSetpointTemperatures,215,206,55
;   temperatureStabilizeAtStartup,1,1
;   temperatureHeatedBed,0,1
;   temperatureRelayBetweenLayers,0,0
;   temperatureRelayBetweenLoops,0,0
;   fanLayers,1,2
;   fanSpeeds,0,100
;   blipFanToFullPower,1
;   adjustSpeedForCooling,1
;   minSpeedLayerTime,12
;   minCoolingSpeedSlowdown,15
;   increaseFanForCooling,0
;   minFanLayerTime,45
;   maxCoolingFanSpeed,100
;   increaseFanForBridging,1
;   bridgingFanSpeed,100
;   use5D,1
;   relativeEdistances,1
;   allowEaxisZeroing,1
;   independentExtruderAxes,0
;   includeM10123,0
;   stickySupport,1
;   applyToolheadOffsets,0
;   gcodeXoffset,0
;   gcodeYoffset,0
;   gcodeZoffset,0
;   overrideMachineDefinition,1
;   machineTypeOverride,0
;   strokeXoverride,250
;   strokeYoverride,210
;   strokeZoverride,200
;   originOffsetXoverride,0
;   originOffsetYoverride,0
;   originOffsetZoverride,0
;   homeXdirOverride,-1
;   homeYdirOverride,-1
;   homeZdirOverride,-1
;   flipXoverride,1
;   flipYoverride,-1
;   flipZoverride,1
;   toolheadOffsets,0,0|0,0|0,0|0,0|0,0|0,0
;   overrideFirmwareConfiguration,0
;   firmwareTypeOverride,RepRap (Marlin/Repetier/Sprinter)
;   GPXconfigOverride,r2
;   baudRateOverride,115200
;   overridePrinterModels,0
;   printerModelsOverride
;   startingGcode,M115 U3.0.12 ; tell the printer latest firmware varsion available,M104 S[extruder0_temperature] T0 ; this will take the layer 1 temperature for extruder 0,M140 S[bed1_temperature] ; this will take the layer 1 temperature for bed 0,M190 S[bed1_temperature] ; wait for bed temp,M109 S[extruder0_temperature] T0 ; wait for extruder temp,G28 W ; home all without mesh bed level,G80 ; mesh bed leveling,G1 Y-3.0 F1000.0 ; go outside printing area,G1 X60.0 E9.0  F1000.0 ; intro line,G1 X100.0 E12.5  F1000.0 ; intro line,
;   layerChangeGcode,
;   retractionGcode,
;   toolChangeGcode,
;   endingGcode,M104 S0 ; turn off extruder,M140 S0 ; turn off bed,M107 ; turn off fan,G1 X0 Y200; home X axis,M84 ; disable motors
;   exportFileFormat,gcode
;   celebration,0
;   celebrationSong,Random Song
;   postProcessing,{REPLACE "; outer perimeter\n" "; outer perimeter\nM204 S800\n"},{REPLACE "; inner perimeter\n" "; inner perimeter\nM204 S1000\n"},{REPLACE "; solid layer\n" "; solid layer\nM204 S1000\n"},{REPLACE "; infill\n" "; infill\nM204 S2000\n"}
;   defaultSpeed,3600
;   outlineUnderspeed,0.6
;   solidInfillUnderspeed,0.6
;   supportUnderspeed,0.8
;   rapidXYspeed,6000
;   rapidZspeed,720
;   minBridgingArea,25
;   bridgingExtraInflation,2
;   bridgingExtrusionMultiplier,0.8
;   bridgingSpeedMultiplier,0.75
;   filamentDiameter,1.75
;   filamentPricePerKg,46
;   filamentDensity,1.25
;   useMinPrintHeight,0
;   minPrintHeight,0
;   useMaxPrintHeight,0
;   maxPrintHeight,0
;   useDiaphragm,0
;   diaphragmLayerInterval,20
;   robustSlicing,1
;   mergeAllIntoSolid,0
;   onlyRetractWhenCrossingOutline,1
;   retractBetweenLayers,1
;   useRetractionMinTravel,1
;   retractionMinTravel,2
;   retractWhileWiping,1
;   onlyWipeOutlines,1
;   avoidCrossingOutline,1
;   maxMovementDetourFactor,3
;   toolChangeRetractionDistance,12
;   toolChangeExtraRestartDistance,-0.5
;   toolChangeRetractionSpeed,600
;   allowThinWallGapFill,1
;   thinWallAllowedOverlapPercentage,20
;   horizontalSizeCompensation,-0.05
G90
M83
M106 S0
M115 U3.0.12 ; tell the printer latest firmware varsion available
M104 S215 T0 ; this will take the layer 1 temperature for extruder 0
M140 S55 ; this will take the layer 1 temperature for bed 0
M190 S55 ; wait for bed temp
M109 S215 T0 ; wait for extruder temp
G28 W ; home all without mesh bed level
G80 ; mesh bed leveling
G1 Y-3.0 F1000.0 ; go outside printing area
G1 X60.0 E9.0  F1000.0 ; intro line
G1 X100.0 E12.5  F1000.0 ; intro line
G1 E-1.0000 F1800
G1 Z0.700 F720
; layer 1, Z = 0.2
T0
; tool H0.200 W0.440
; inner perimeter
M204 S1000
G1 X92.295 Y99.598 F6000
G1 Z0.200 F720
G1 E1.0000 F540
G1 X93.242 Y98.979 E0.0393 F2184
G1 X94.277 Y98.525 E0.0393
G1 X95.373 Y98.247 E0.0393
G1 X96.548 Y98.150 E0.0410
G1 X153.452 Y98.150 E1.9778
G1 X154.627 Y98.247 E0.0410
G1 X155.723 Y98.525 E0.0393
G1 X156.758 Y98.979 E0.0393
G1 X157.705 Y99.597 E0.0393
G1 X158.537 Y100.363 E0.0393
G1 X159.231 Y101.256 E0.0393
G1 X159.769 Y102.250 E0.0393
G1 X160.137 Y103.319 E0.0393
G1 X160.323 Y104.435 E0.0393
G1 X160.323 Y105.565 E0.0393
G1 X160.137 Y106.681 E0.0393
G1 X159.769 Y107.750 E0.0393
G1 X159.231 Y108.744 E0.0393
G1 X158.537 Y109.637 E0.0393
G1 X157.705 Y110.403 E0.0393
G1 X156.758 Y111.021 E0.0393
G1 X155.723 Y111.475 E0.0393
G1 X154.627 Y111.753 E0.0393
G1 X153.452 Y111.850 E0.0410
G1 X96.548 Y111.850 E1.9778
G1 X95.373 Y111.753 E0.0410
G1 X94.277 Y111.475 E0.0393
G1 X93.242 Y111.021 E0.0393
G1 X92.295 Y110.402 E0.0393
G1 X91.463 Y109.637 E0.0393
G1 X90.769 Y108.744 E0.0393
G1 X90.231 Y107.750 E0.0393
G1 X89.863 Y106.681 E0.0393
G1 X89.677 Y105.565 E0.0393
G1 X89.677 Y104.435 E0.0393
G1 X89.863 Y103.319 E0.0393
G1 X90.231 Y102.250 E0.0393
G1 X90.769 Y101.256 E0.0393
G1 X91.463 Y100.363 E0.0393
G1 X91.927 Y99.936 E0.0219
G1 X92.295 Y99.598 F2184
; inner perimeter
M204 S1000
G1 X92.024 Y99.249 F6000
G1 X93.031 Y98.591 E0.0418 F1848
G1 X94.134 Y98.107 E0.0418
G1 X95.300 Y97.812 E0.0418
G1 X96.529 Y97.710 E0.0429
G1 X153.471 Y97.710 E1.9791
G1 X154.700 Y97.812 E0.0429
G1 X155.866 Y98.107 E0.0418
G1 X156.968 Y98.591 E0.0418
G1 X157.976 Y99.249 E0.0418
G1 X158.862 Y100.064 E0.0418
G1 X159.601 Y101.014 E0.0418
G1 X160.174 Y102.073 E0.0418
G1 X160.565 Y103.211 E0.0418
G1 X160.763 Y104.398 E0.0418
G1 X160.763 Y105.602 E0.0418
G1 X160.565 Y106.789 E0.0418
G1 X160.174 Y107.927 E0.0418
G1 X159.601 Y108.986 E0.0418
G1 X158.862 Y109.936 E0.0418
G1 X157.976 Y110.751 E0.0418
G1 X156.968 Y111.409 E0.0418
G1 X155.866 Y111.893 E0.0418
G1 X154.699 Y112.188 E0.0418
G1 X153.471 Y112.290 E0.0429
G1 X96.529 Y112.290 E1.9791
G1 X95.301 Y112.188 E0.0429
G1 X94.134 Y111.893 E0.0418
G1 X93.031 Y111.409 E0.0418
G1 X92.024 Y110.751 E0.0418
G1 X91.138 Y109.936 E0.0418
G1 X90.399 Y108.986 E0.0418
G1 X89.826 Y107.927 E0.0418
G1 X89.435 Y106.789 E0.0418
G1 X89.237 Y105.602 E0.0418
G1 X89.237 Y104.398 E0.0418
G1 X89.435 Y103.211 E0.0418
G1 X89.826 Y102.073 E0.0418
G1 X90.399 Y101.014 E0.0418
G1 X91.138 Y100.064 E0.0418
G1 X91.656 Y99.588 E0.0245
G1 X92.024 Y99.249 F1848
; outer perimeter
M204 S800
G1 X91.753 Y98.901 F6000
G1 X92.821 Y98.202 E0.0444 F1512
G1 X93.990 Y97.690 E0.0444
G1 X95.228 Y97.376 E0.0444
G1 X96.511 Y97.270 E0.0448
G1 X153.489 Y97.270 E1.9804
G1 X154.772 Y97.376 E0.0448
G1 X156.010 Y97.690 E0.0444
G1 X157.179 Y98.202 E0.0444
G1 X158.247 Y98.901 E0.0444
G1 X159.186 Y99.765 E0.0444
G1 X159.970 Y100.773 E0.0444
G1 X160.578 Y101.895 E0.0444
G1 X160.993 Y103.103 E0.0444
G1 X161.203 Y104.362 E0.0444
G1 X161.203 Y105.638 E0.0444
G1 X160.993 Y106.897 E0.0444
G1 X160.578 Y108.105 E0.0444
G1 X159.970 Y109.227 E0.0444
G1 X159.186 Y110.235 E0.0444
G1 X158.247 Y111.099 E0.0444
G1 X157.179 Y111.798 E0.0444
G1 X156.010 Y112.310 E0.0444
G1 X154.772 Y112.624 E0.0444
G1 X153.489 Y112.730 E0.0448
G1 X96.511 Y112.730 E1.9804
G1 X95.228 Y112.624 E0.0448
G1 X93.990 Y112.310 E0.0444
G1 X92.821 Y111.798 E0.0444
G1 X91.753 Y111.099 E0.0444
G1 X90.814 Y110.235 E0.0444
G1 X90.029 Y109.227 E0.0444
G1 X89.422 Y108.105 E0.0444
G1 X89.007 Y106.897 E0.0444
G1 X88.797 Y105.638 E0.0444
G1 X88.797 Y104.362 E0.0444
G1 X89.007 Y103.103 E0.0444
G1 X89.422 Y101.895 E0.0444
G1 X90.029 Y100.773 E0.0444
G1 X90.814 Y99.765 E0.0444
G1 X91.385 Y99.239 E0.0270
G1 X91.753 Y98.901 F1512
G1 X92.821 Y98.202 F3600
G1 X93.484 Y97.912 F3600
; inner perimeter
M204 S1000
G1 X93.972 Y102.362 F6000
G1 X93.562 Y102.827 E0.0215 F2184
G1 X93.237 Y103.355 E0.0215
G1 X93.006 Y103.930 E0.0215
G1 X92.875 Y104.536 E0.0215
G1 X92.849 Y105.155 E0.0215
G1 X92.928 Y105.770 E0.0215
G1 X93.109 Y106.362 E0.0215
G1 X93.388 Y106.916 E0.0215
G1 X93.757 Y107.414 E0.0215
G1 X94.204 Y107.843 E0.0215
G1 X94.718 Y108.190 E0.0215
G1 X95.283 Y108.445 E0.0215
G1 X95.882 Y108.602 E0.0215
G1 X96.500 Y108.654 E0.0215
G1 X97.118 Y108.602 E0.0215
G1 X97.717 Y108.445 E0.0215
G1 X98.282 Y108.190 E0.0215
G1 X98.796 Y107.843 E0.0215
G1 X99.243 Y107.414 E0.0215
G1 X99.612 Y106.916 E0.0215
G1 X99.891 Y106.362 E0.0215
G1 X100.072 Y105.770 E0.0215
G1 X100.151 Y105.155 E0.0215
G1 X100.125 Y104.536 E0.0215
G1 X99.994 Y103.930 E0.0215
G1 X99.763 Y103.355 E0.0215
G1 X99.438 Y102.827 E0.0215
G1 X99.028 Y102.362 E0.0215
G1 X98.546 Y101.972 E0.0215
G1 X98.005 Y101.670 E0.0215
G1 X97.420 Y101.463 E0.0216
G1 X96.805 Y101.359 E0.0217
G1 X96.190 Y101.359 E0.0214
G1 X95.579 Y101.464 E0.0215
G1 X94.995 Y101.670 E0.0215
G1 X94.454 Y101.972 E0.0215
G1 X94.361 Y102.048 E0.0042
G1 X93.972 Y102.362 F2184
; inner perimeter
M204 S1000
G1 X94.277 Y102.681 F6000
G1 X93.917 Y103.090 E0.0189 F1848
G1 X93.631 Y103.554 E0.0189
G1 X93.428 Y104.059 E0.0189
G1 X93.313 Y104.592 E0.0189
G1 X93.290 Y105.136 E0.0189
G1 X93.360 Y105.677 E0.0189
G1 X93.519 Y106.198 E0.0189
G1 X93.764 Y106.684 E0.0189
G1 X94.088 Y107.122 E0.0189
G1 X94.482 Y107.500 E0.0189
G1 X94.933 Y107.805 E0.0189
G1 X95.430 Y108.029 E0.0189
G1 X95.957 Y108.166 E0.0189
G1 X96.500 Y108.213 E0.0189
G1 X97.043 Y108.166 E0.0189
G1 X97.570 Y108.029 E0.0189
G1 X98.067 Y107.805 E0.0189
G1 X98.518 Y107.500 E0.0189
G1 X98.912 Y107.122 E0.0189
G1 X99.236 Y106.684 E0.0189
G1 X99.481 Y106.198 E0.0189
G1 X99.640 Y105.677 E0.0189
G1 X99.710 Y105.136 E0.0189
G1 X99.687 Y104.592 E0.0189
G1 X99.572 Y104.059 E0.0189
G1 X99.369 Y103.554 E0.0189
G1 X99.083 Y103.090 E0.0189
G1 X98.723 Y102.681 E0.0189
G1 X98.299 Y102.338 E0.0189
G1 X97.823 Y102.073 E0.0189
G1 X97.309 Y101.891 E0.0190
G1 X96.768 Y101.799 E0.0191
G1 X96.227 Y101.799 E0.0188
G1 X95.691 Y101.891 E0.0189
G1 X95.177 Y102.073 E0.0189
G1 X94.701 Y102.338 E0.0189
G1 X94.666 Y102.367 E0.0016
G1 X94.277 Y102.681 F1848
; outer perimeter
M204 S800
G1 X94.583 Y102.999 F6000
G1 X94.272 Y103.352 E0.0163 F1512
G1 X94.026 Y103.752 E0.0163
G1 X93.850 Y104.189 E0.0163
G1 X93.751 Y104.648 E0.0163
G1 X93.732 Y105.118 E0.0163
G1 X93.791 Y105.584 E0.0163
G1 X93.929 Y106.033 E0.0163
G1 X94.140 Y106.453 E0.0163
G1 X94.420 Y106.831 E0.0163
G1 X94.759 Y107.156 E0.0163
G1 X95.149 Y107.419 E0.0163
G1 X95.577 Y107.613 E0.0163
G1 X96.032 Y107.731 E0.0163
G1 X96.500 Y107.771 E0.0163
G1 X96.968 Y107.731 E0.0163
G1 X97.423 Y107.613 E0.0163
G1 X97.851 Y107.419 E0.0163
G1 X98.241 Y107.156 E0.0163
G1 X98.580 Y106.831 E0.0163
G1 X98.860 Y106.453 E0.0163
G1 X99.071 Y106.033 E0.0163
G1 X99.209 Y105.584 E0.0163
G1 X99.268 Y105.118 E0.0163
G1 X99.249 Y104.648 E0.0163
G1 X99.150 Y104.189 E0.0163
G1 X98.974 Y103.752 E0.0163
G1 X98.728 Y103.352 E0.0163
G1 X98.417 Y102.999 E0.0163
G1 X98.052 Y102.704 E0.0163
G1 X97.641 Y102.475 E0.0163
G1 X97.198 Y102.318 E0.0163
G1 X96.731 Y102.239 E0.0165
G1 X96.265 Y102.239 E0.0162
G1 X95.802 Y102.318 E0.0163
G1 X95.359 Y102.475 E0.0163
G1 X94.975 Y102.690 E0.0153
G1 X94.948 Y102.704 F1512
G1 X94.583 Y102.999 F1512
G1 X94.272 Y103.352 F3600
G1 X94.026 Y103.752 F3600
G1 X93.850 Y104.189 F3600
G1 X93.751 Y104.648 F3600
G1 X93.746 Y104.768 F3600
; inner perimeter
M204 S1000
G1 X93.751 Y104.768 F6000
G1 X93.756 Y104.649 F6000
G1 X93.855 Y104.190 F6000
G1 X94.030 Y103.754 F6000
G1 X94.276 Y103.355 F6000
G1 X94.586 Y103.003 F6000
G1 X94.951 Y102.708 F6000
G1 X95.360 Y102.479 F6000
G1 X95.803 Y102.323 F6000
G1 X96.265 Y102.243 F6000
G1 X96.730 Y102.243 F6000
G1 X97.197 Y102.323 F6000
G1 X97.640 Y102.479 F6000
G1 X98.049 Y102.708 F6000
G1 X98.414 Y103.003 F6000
G1 X98.724 Y103.355 F6000
G1 X98.970 Y103.754 F6000
G1 X99.145 Y104.190 F6000
G1 X99.189 Y104.395 F6000
G1 X122.062 Y102.827 F6000
G1 X121.737 Y103.355 E0.0215 F2184
G1 X121.506 Y103.930 E0.0215
G1 X121.375 Y104.536 E0.0215
G1 X121.349 Y105.155 E0.0215
G1 X121.428 Y105.770 E0.0215
G1 X121.609 Y106.362 E0.0215
G1 X121.888 Y106.916 E0.0215
G1 X122.257 Y107.414 E0.0215
G1 X122.704 Y107.843 E0.0215
G1 X123.218 Y108.190 E0.0215
G1 X123.783 Y108.445 E0.0215
G1 X124.382 Y108.602 E0.0215
G1 X125.000 Y108.654 E0.0215
G1 X125.618 Y108.602 E0.0215
G1 X126.217 Y108.445 E0.0215
G1 X126.782 Y108.190 E0.0215
G1 X127.296 Y107.843 E0.0215
G1 X127.743 Y107.414 E0.0215
G1 X128.112 Y106.916 E0.0215
G1 X128.391 Y106.362 E0.0215
G1 X128.572 Y105.770 E0.0215
G1 X128.651 Y105.155 E0.0215
G1 X128.625 Y104.536 E0.0215
G1 X128.494 Y103.930 E0.0215
G1 X128.263 Y103.355 E0.0215
G1 X127.938 Y102.827 E0.0215
G1 X127.528 Y102.362 E0.0215
G1 X127.046 Y101.972 E0.0215
G1 X126.505 Y101.670 E0.0215
G1 X125.920 Y101.463 E0.0216
G1 X125.328 Y101.363 E0.0209
G1 X124.995 Y101.349 E0.0116
G1 X124.666 Y101.363 E0.0114
G1 X124.079 Y101.464 E0.0207
G1 X123.495 Y101.670 E0.0215
G1 X122.954 Y101.972 E0.0215
G1 X122.472 Y102.362 E0.0215
G1 X122.392 Y102.452 E0.0042
G1 X122.062 Y102.827 F2184
; inner perimeter
M204 S1000
G1 X122.417 Y103.090 F6000
G1 X122.131 Y103.554 E0.0189 F1848
G1 X121.928 Y104.059 E0.0189
G1 X121.813 Y104.592 E0.0189
G1 X121.790 Y105.136 E0.0189
G1 X121.860 Y105.677 E0.0189
G1 X122.019 Y106.198 E0.0189
G1 X122.264 Y106.684 E0.0189
G1 X122.588 Y107.122 E0.0189
G1 X122.982 Y107.500 E0.0189
G1 X123.433 Y107.805 E0.0189
G1 X123.930 Y108.029 E0.0189
G1 X124.457 Y108.166 E0.0189
G1 X125.000 Y108.213 E0.0189
G1 X125.543 Y108.166 E0.0189
G1 X126.070 Y108.029 E0.0189
G1 X126.567 Y107.805 E0.0189
G1 X127.018 Y107.500 E0.0189
G1 X127.412 Y107.122 E0.0189
G1 X127.736 Y106.684 E0.0189
G1 X127.981 Y106.198 E0.0189
G1 X128.140 Y105.677 E0.0189
G1 X128.210 Y105.136 E0.0189
G1 X128.187 Y104.592 E0.0189
