; G-Code generated by Simplify3D(R) Version 3.1.1
; Apr 9, 2018 at 10:28:15 AM
; Settings Summary
;   processName,Prusa i3 Mk2S
;   applyToModels,Shaft_coupler_2,Shaft_coupler_2(2),Shaft_coupler_2(3),Shaft_coupler_2(2)(2),Shaft_coupler_2(4),Shaft_coupler_2(2)(3)
;   profileName,Default (modified)
;   profileVersion,2017-07-16 09:26:29
;   baseProfile,Default
;   printMaterial,PLA
;   printQuality,Normal 0.2
;   printExtruders,
;   extruderName,Primary Extruder
;   extruderToolheadNumber,0
;   extruderDiameter,0.4
;   extruderAutoWidth,0
;   extruderWidth,0.44
;   extrusionMultiplier,0.95
;   extruderUseRetract,1
;   extruderRetractionDistance,1
;   extruderExtraRestartDistance,0
;   extruderRetractionZLift,0.5
;   extruderRetractionSpeed,1800
;   extruderUseCoasting,1
;   extruderCoastingDistance,0.5
;   extruderUseWipe,1
;   extruderWipeDistance,2
;   primaryExtruder,0
;   layerHeight,0.2
;   topSolidLayers,5
;   bottomSolidLayers,4
;   perimeterOutlines,3
;   printPerimetersInsideOut,1
;   startPointOption,2
;   startPointOriginX,230
;   startPointOriginY,0
;   startPointOriginZ,210
;   sequentialIslands,0
;   spiralVaseMode,0
;   firstLayerHeightPercentage,100
;   firstLayerWidthPercentage,100
;   firstLayerUnderspeed,0.7
;   useRaft,0
;   raftExtruder,0
;   raftLayers,3
;   raftOffset,3
;   raftSeparationDistance,0.14
;   raftInfill,85
;   disableRaftBaseLayers,0
;   useSkirt,0
;   skirtExtruder,0
;   skirtLayers,1
;   skirtOutlines,5
;   skirtOffset,0
;   usePrimePillar,0
;   primePillarExtruder,999
;   primePillarWidth,12
;   primePillarLocation,7
;   primePillarSpeedMultiplier,1
;   useOozeShield,0
;   oozeShieldExtruder,999
;   oozeShieldOffset,2
;   oozeShieldOutlines,1
;   oozeShieldSidewallShape,1
;   oozeShieldSidewallAngle,30
;   oozeShieldSpeedMultiplier,1
;   infillExtruder,0
;   internalInfillPattern,Grid
;   externalInfillPattern,Rectilinear
;   infillPercentage,40
;   outlineOverlapPercentage,25
;   infillExtrusionWidthPercentage,100
;   minInfillLength,2
;   infillLayerInterval,1
;   infillAngles,45,-45
;   overlapInfillAngles,1
;   generateSupport,0
;   supportExtruder,0
;   supportInfillPercentage,10
;   supportExtraInflation,0.2
;   denseSupportLayers,0
;   denseSupportInfillPercentage,15
;   supportLayerInterval,1
;   supportHorizontalPartOffset,0.25
;   supportUpperSeparationLayers,1
;   supportLowerSeparationLayers,1
;   supportType,0
;   supportGridSpacing,4
;   maxOverhangAngle,0
;   supportAngles,0,90
;   temperatureName,Primary Extruder,Heated Bed
;   temperatureNumber,0,1
;   temperatureSetpointCount,2,1
;   temperatureSetpointLayers,1,2,1
;   temperatureSetpointTemperatures,215,206,55
;   temperatureStabilizeAtStartup,1,1
;   temperatureHeatedBed,0,1
;   temperatureRelayBetweenLayers,0,0
;   temperatureRelayBetweenLoops,0,0
;   fanLayers,1,2
;   fanSpeeds,0,100
;   blipFanToFullPower,1
;   adjustSpeedForCooling,1
;   minSpeedLayerTime,12
;   minCoolingSpeedSlowdown,15
;   increaseFanForCooling,0
;   minFanLayerTime,45
;   maxCoolingFanSpeed,100
;   increaseFanForBridging,1
;   bridgingFanSpeed,100
;   use5D,1
;   relativeEdistances,1
;   allowEaxisZeroing,1
;   independentExtruderAxes,0
;   includeM10123,0
;   stickySupport,1
;   applyToolheadOffsets,0
;   gcodeXoffset,0
;   gcodeYoffset,0
;   gcodeZoffset,0
;   overrideMachineDefinition,1
;   machineTypeOverride,0
;   strokeXoverride,250
;   strokeYoverride,210
;   strokeZoverride,200
;   originOffsetXoverride,0
;   originOffsetYoverride,0
;   originOffsetZoverride,0
;   homeXdirOverride,-1
;   homeYdirOverride,-1
;   homeZdirOverride,-1
;   flipXoverride,1
;   flipYoverride,-1
;   flipZoverride,1
;   toolheadOffsets,0,0|0,0|0,0|0,0|0,0|0,0
;   overrideFirmwareConfiguration,0
;   firmwareTypeOverride,RepRap (Marlin/Repetier/Sprinter)
;   GPXconfigOverride,r2
;   baudRateOverride,115200
;   overridePrinterModels,0
;   printerModelsOverride
;   startingGcode,M115 U3.0.12 ; tell the printer latest firmware varsion available,M104 S[extruder0_temperature] T0 ; this will take the layer 1 temperature for extruder 0,M140 S[bed1_temperature] ; this will take the layer 1 temperature for bed 0,M190 S[bed1_temperature] ; wait for bed temp,M109 S[extruder0_temperature] T0 ; wait for extruder temp,G28 W ; home all without mesh bed level,G80 ; mesh bed leveling,G1 Y-3.0 F1000.0 ; go outside printing area,G1 X60.0 E9.0  F1000.0 ; intro line,G1 X100.0 E12.5  F1000.0 ; intro line,
;   layerChangeGcode,
;   retractionGcode,
;   toolChangeGcode,
;   endingGcode,M104 S0 ; turn off extruder,M140 S0 ; turn off bed,M107 ; turn off fan,G1 X0 Y200; home X axis,M84 ; disable motors
;   exportFileFormat,gcode
;   celebration,0
;   celebrationSong,Random Song
;   postProcessing,{REPLACE "; outer perimeter\n" "; outer perimeter\nM204 S800\n"},{REPLACE "; inner perimeter\n" "; inner perimeter\nM204 S1000\n"},{REPLACE "; solid layer\n" "; solid layer\nM204 S1000\n"},{REPLACE "; infill\n" "; infill\nM204 S2000\n"}
;   defaultSpeed,3600
;   outlineUnderspeed,0.6
;   solidInfillUnderspeed,0.6
;   supportUnderspeed,0.8
;   rapidXYspeed,6000
;   rapidZspeed,720
;   minBridgingArea,25
;   bridgingExtraInflation,2
;   bridgingExtrusionMultiplier,0.8
;   bridgingSpeedMultiplier,0.75
;   filamentDiameter,1.75
;   filamentPricePerKg,46
;   filamentDensity,1.25
;   useMinPrintHeight,0
;   minPrintHeight,0
;   useMaxPrintHeight,0
;   maxPrintHeight,0
;   useDiaphragm,0
;   diaphragmLayerInterval,20
;   robustSlicing,1
;   mergeAllIntoSolid,0
;   onlyRetractWhenCrossingOutline,1
;   retractBetweenLayers,1
;   useRetractionMinTravel,1
;   retractionMinTravel,2
;   retractWhileWiping,1
;   onlyWipeOutlines,1
;   avoidCrossingOutline,1
;   maxMovementDetourFactor,3
;   toolChangeRetractionDistance,12
;   toolChangeExtraRestartDistance,-0.5
;   toolChangeRetractionSpeed,600
;   allowThinWallGapFill,1
;   thinWallAllowedOverlapPercentage,20
;   horizontalSizeCompensation,-0.05
G90
M83
M106 S0
M115 U3.0.12 ; tell the printer latest firmware varsion available
M104 S215 T0 ; this will take the layer 1 temperature for extruder 0
M140 S55 ; this will take the layer 1 temperature for bed 0
M190 S55 ; wait for bed temp
M109 S215 T0 ; wait for extruder temp
G28 W ; home all without mesh bed level
G80 ; mesh bed leveling
G1 Y-3.0 F1000.0 ; go outside printing area
G1 X60.0 E9.0  F1000.0 ; intro line
G1 X100.0 E12.5  F1000.0 ; intro line
G1 E-1.0000 F1800
G1 Z0.700 F720
; layer 1, Z = 0.2
T0
; tool H0.200 W0.440
; inner perimeter
M204 S1000
G1 X105.648 Y75.060 F6000
G1 Z0.200 F720
G1 E1.0000 F540
G1 X106.193 Y74.371 E0.0306 F2184
G1 X106.805 Y73.741 E0.0305
G1 X107.480 Y73.177 E0.0305
G1 X108.208 Y72.685 E0.0306
G1 X108.983 Y72.271 E0.0305
G1 X109.797 Y71.938 E0.0306
G1 X110.641 Y71.691 E0.0305
G1 X111.505 Y71.532 E0.0305
G1 X112.381 Y71.463 E0.0305
G1 X113.260 Y71.483 E0.0306
G1 X114.132 Y71.594 E0.0305
G1 X114.988 Y71.794 E0.0305
G1 X115.819 Y72.081 E0.0305
G1 X116.614 Y72.450 E0.0305
G1 X117.403 Y72.923 E0.0319
G1 X118.074 Y73.426 E0.0292
G1 X118.722 Y74.022 E0.0306
G1 X119.304 Y74.680 E0.0306
G1 X119.816 Y75.395 E0.0305
G1 X120.252 Y76.158 E0.0306
G1 X120.607 Y76.962 E0.0305
G1 X120.799 Y77.557 E0.0217
G1 X115.711 Y77.555 E0.1769
G1 X115.648 Y77.466 E0.0038
G1 X115.161 Y76.978 E0.0240
G1 X114.596 Y76.583 E0.0240
G1 X113.972 Y76.292 E0.0240
G1 X113.306 Y76.113 E0.0240
G1 X112.619 Y76.053 E0.0240
G1 X111.933 Y76.113 E0.0240
G1 X111.267 Y76.292 E0.0240
G1 X110.642 Y76.583 E0.0240
G1 X110.077 Y76.979 E0.0240
G1 X109.590 Y77.466 E0.0240
G1 X109.528 Y77.555 E0.0038
G1 X105.569 Y77.558 E0.1376
G1 X105.193 Y77.591 E0.0131
G1 X104.780 Y77.701 E0.0149
G1 X104.345 Y77.904 E0.0167
G1 X104.475 Y77.411 E0.0177
G1 X104.784 Y76.589 E0.0305
G1 X105.177 Y75.802 E0.0306
G1 X105.380 Y75.483 E0.0132
G1 X105.648 Y75.060 F2184
G1 X104.998 Y78.575 F6000
G1 X104.836 Y78.651 F6000
G1 X104.612 Y78.808 F6000
G1 X104.419 Y79.001 F6000
G1 X104.262 Y79.224 F6000
G1 X104.147 Y79.472 F6000
G1 X104.076 Y79.736 F6000
G1 X104.053 Y80.008 F6000
G1 X104.076 Y80.280 F6000
G1 X104.147 Y80.544 F6000
G1 X104.262 Y80.791 F6000
G1 X104.419 Y81.015 F6000
G1 X104.528 Y81.123 F6000
G1 X104.345 Y82.111 F6000
G1 X104.780 Y82.314 E0.0167 F2184
G1 X105.193 Y82.425 E0.0149
G1 X105.569 Y82.458 E0.0131
G1 X109.528 Y82.460 E0.1376
G1 X109.590 Y82.550 E0.0038
G1 X110.077 Y83.037 E0.0240
G1 X110.642 Y83.432 E0.0240
G1 X111.267 Y83.724 E0.0240
G1 X111.933 Y83.902 E0.0240
G1 X112.619 Y83.962 E0.0240
G1 X113.306 Y83.902 E0.0240
G1 X113.972 Y83.724 E0.0240
G1 X114.596 Y83.432 E0.0240
G1 X115.161 Y83.037 E0.0240
G1 X115.648 Y82.550 E0.0240
G1 X115.711 Y82.461 E0.0038
G1 X120.799 Y82.458 E0.1769
G1 X120.607 Y83.053 E0.0217
G1 X120.252 Y83.857 E0.0305
G1 X119.816 Y84.621 E0.0306
G1 X119.304 Y85.335 E0.0305
G1 X118.722 Y85.994 E0.0305
G1 X118.075 Y86.589 E0.0305
G1 X117.371 Y87.114 E0.0305
G1 X116.616 Y87.565 E0.0306
G1 X115.819 Y87.935 E0.0305
G1 X114.988 Y88.222 E0.0306
G1 X114.132 Y88.421 E0.0305
G1 X113.260 Y88.532 E0.0305
G1 X112.381 Y88.553 E0.0306
G1 X111.505 Y88.483 E0.0305
G1 X110.641 Y88.324 E0.0305
G1 X109.797 Y88.077 E0.0305
G1 X108.984 Y87.745 E0.0305
G1 X108.208 Y87.330 E0.0305
G1 X107.480 Y86.839 E0.0306
G1 X106.805 Y86.275 E0.0305
G1 X106.193 Y85.645 E0.0305
G1 X105.648 Y84.955 E0.0306
G1 X105.177 Y84.213 E0.0305
G1 X104.784 Y83.427 E0.0306
G1 X104.475 Y82.604 E0.0305
G1 X104.472 Y82.595 E0.0003
G1 X104.345 Y82.111 F2184
; inner perimeter
M204 S1000
G1 X104.479 Y81.075 F6000
G1 X104.419 Y81.015 F6000
G1 X104.262 Y80.791 F6000
G1 X104.147 Y80.544 F6000
G1 X104.076 Y80.280 F6000
G1 X104.053 Y80.008 F6000
G1 X104.076 Y79.736 F6000
G1 X104.147 Y79.472 F6000
G1 X104.262 Y79.224 F6000
G1 X104.419 Y79.001 F6000
G1 X104.612 Y78.808 F6000
G1 X104.787 Y78.685 F6000
G1 X105.288 Y74.805 F6000
G1 X105.861 Y74.080 E0.0321 F1848
G1 X106.506 Y73.418 E0.0321
G1 X107.215 Y72.825 E0.0321
G1 X107.981 Y72.308 E0.0321
G1 X108.796 Y71.872 E0.0321
G1 X109.652 Y71.523 E0.0321
G1 X110.539 Y71.263 E0.0321
G1 X111.448 Y71.095 E0.0321
G1 X112.369 Y71.022 E0.0321
G1 X113.293 Y71.044 E0.0321
G1 X114.210 Y71.161 E0.0321
G1 X115.110 Y71.371 E0.0321
G1 X115.984 Y71.672 E0.0321
G1 X116.821 Y72.061 E0.0321
G1 X117.648 Y72.557 E0.0335
G1 X118.356 Y73.087 E0.0307
G1 X119.037 Y73.713 E0.0321
G1 X119.649 Y74.405 E0.0321
G1 X120.187 Y75.157 E0.0321
G1 X120.645 Y75.960 E0.0321
G1 X121.018 Y76.805 E0.0321
G1 X121.303 Y77.684 E0.0321
G1 X121.370 Y77.997 E0.0111
G1 X115.482 Y77.995 E0.2046
G1 X115.310 Y77.750 E0.0104
G1 X114.877 Y77.317 E0.0213
G1 X114.376 Y76.966 E0.0213
G1 X113.821 Y76.707 E0.0213
G1 X113.229 Y76.548 E0.0213
G1 X112.619 Y76.495 E0.0213
G1 X112.009 Y76.548 E0.0213
G1 X111.418 Y76.707 E0.0213
G1 X110.863 Y76.966 E0.0213
G1 X110.361 Y77.317 E0.0213
G1 X109.928 Y77.750 E0.0213
G1 X109.757 Y77.995 E0.0104
G1 X105.588 Y77.998 E0.1449
G1 X105.270 Y78.026 E0.0111
G1 X104.931 Y78.116 E0.0122
G1 X104.613 Y78.265 E0.0122
G1 X104.325 Y78.466 E0.0122
G1 X104.077 Y78.714 E0.0122
G1 X103.903 Y78.963 E0.0105
G1 X103.709 Y78.884 E0.0073
G1 X103.820 Y78.171 E0.0251
G1 X104.055 Y77.278 E0.0321
G1 X104.380 Y76.413 E0.0321
G1 X104.793 Y75.586 E0.0321
G1 X105.020 Y75.228 E0.0147
G1 X105.288 Y74.805 F1848
G1 X104.330 Y79.128 F6000
G1 X104.262 Y79.224 F6000
G1 X104.147 Y79.472 F6000
G1 X104.076 Y79.736 F6000
G1 X104.053 Y80.008 F6000
G1 X104.076 Y80.275 F6000
G1 X103.903 Y81.053 F6000
G1 X104.077 Y81.302 E0.0105 F1848
G1 X104.325 Y81.550 E0.0122
G1 X104.613 Y81.751 E0.0122
G1 X104.931 Y81.899 E0.0122
G1 X105.270 Y81.990 E0.0122
G1 X105.588 Y82.018 E0.0111
G1 X109.757 Y82.021 E0.1449
G1 X109.928 Y82.266 E0.0104
G1 X110.361 Y82.699 E0.0213
G1 X110.863 Y83.050 E0.0213
G1 X111.418 Y83.309 E0.0213
G1 X112.009 Y83.467 E0.0213
G1 X112.619 Y83.520 E0.0213
G1 X113.229 Y83.467 E0.0213
G1 X113.821 Y83.309 E0.0213
G1 X114.376 Y83.050 E0.0213
G1 X114.877 Y82.699 E0.0213
G1 X115.310 Y82.266 E0.0213
G1 X115.482 Y82.021 E0.0104
G1 X121.370 Y82.018 E0.2046
G1 X121.303 Y82.331 E0.0111
G1 X121.018 Y83.210 E0.0321
G1 X120.645 Y84.056 E0.0321
G1 X120.187 Y84.859 E0.0321
G1 X119.649 Y85.610 E0.0321
G1 X119.037 Y86.302 E0.0321
G1 X118.356 Y86.928 E0.0321
G1 X117.615 Y87.480 E0.0321
G1 X116.822 Y87.954 E0.0321
G1 X115.984 Y88.343 E0.0321
G1 X115.110 Y88.645 E0.0321
G1 X114.210 Y88.855 E0.0321
G1 X113.293 Y88.972 E0.0321
G1 X112.369 Y88.993 E0.0321
G1 X111.448 Y88.920 E0.0321
G1 X110.539 Y88.753 E0.0321
G1 X109.652 Y88.493 E0.0321
G1 X108.796 Y88.143 E0.0321
G1 X107.981 Y87.708 E0.0321
G1 X107.215 Y87.191 E0.0321
G1 X106.506 Y86.598 E0.0321
G1 X105.861 Y85.935 E0.0321
G1 X105.288 Y85.210 E0.0321
G1 X104.793 Y84.430 E0.0321
G1 X104.380 Y83.603 E0.0321
G1 X104.055 Y82.738 E0.0321
G1 X103.820 Y81.844 E0.0321
G1 X103.753 Y81.418 E0.0150
G1 X103.709 Y81.131 F1848
G1 X103.903 Y81.053 F1848
; outer perimeter
M204 S800
G1 X104.058 Y80.072 F6000
G1 X104.053 Y80.008 F6000
G1 X104.076 Y79.736 F6000
G1 X104.147 Y79.472 F6000
G1 X104.156 Y79.453 F6000
G1 X104.929 Y74.550 F6000
G1 X105.530 Y73.790 E0.0337 F1512
G1 X106.206 Y73.095 E0.0337
G1 X106.950 Y72.473 E0.0337
G1 X107.754 Y71.930 E0.0337
G1 X108.609 Y71.473 E0.0337
G1 X109.506 Y71.107 E0.0337
G1 X110.437 Y70.834 E0.0337
G1 X111.390 Y70.659 E0.0337
G1 X112.357 Y70.582 E0.0337
G1 X113.326 Y70.605 E0.0337
G1 X114.288 Y70.727 E0.0337
G1 X115.232 Y70.947 E0.0337
G1 X116.148 Y71.263 E0.0337
G1 X117.027 Y71.672 E0.0337
G1 X117.894 Y72.192 E0.0351
G1 X118.637 Y72.748 E0.0323
G1 X119.351 Y73.405 E0.0337
G1 X119.993 Y74.131 E0.0337
G1 X120.558 Y74.919 E0.0337
G1 X121.039 Y75.761 E0.0337
G1 X121.430 Y76.648 E0.0337
G1 X121.728 Y77.571 E0.0337
G1 X121.913 Y78.438 E0.0308
G1 X115.253 Y78.435 E0.2315
G1 X114.972 Y78.034 E0.0170
G1 X114.593 Y77.655 E0.0186
G1 X114.155 Y77.348 E0.0186
G1 X113.670 Y77.122 E0.0186
G1 X113.152 Y76.983 E0.0186
G1 X112.619 Y76.937 E0.0186
G1 X112.086 Y76.983 E0.0186
G1 X111.569 Y77.122 E0.0186
G1 X111.084 Y77.348 E0.0186
G1 X110.645 Y77.655 E0.0186
G1 X110.267 Y78.034 E0.0186
G1 X109.986 Y78.435 E0.0170
G1 X105.607 Y78.438 E0.1522
G1 X105.346 Y78.461 E0.0091
G1 X105.082 Y78.531 E0.0095
G1 X104.834 Y78.647 E0.0095
G1 X104.609 Y78.804 E0.0095
G1 X104.416 Y78.998 E0.0095
G1 X104.259 Y79.222 E0.0095
G1 X104.143 Y79.470 E0.0095
G1 X104.072 Y79.735 E0.0095
G1 X104.048 Y80.008 E0.0095
G1 X104.072 Y80.281 E0.0095
G1 X104.143 Y80.545 E0.0095
G1 X104.259 Y80.793 E0.0095
G1 X104.416 Y81.018 E0.0095
G1 X104.609 Y81.211 E0.0095
G1 X104.834 Y81.368 E0.0095
G1 X105.082 Y81.484 E0.0095
G1 X105.346 Y81.555 E0.0095
G1 X105.607 Y81.578 E0.0091
G1 X109.986 Y81.581 E0.1522
G1 X110.267 Y81.982 E0.0170
G1 X110.645 Y82.360 E0.0186
G1 X111.084 Y82.667 E0.0186
G1 X111.569 Y82.894 E0.0186
G1 X112.086 Y83.032 E0.0186
G1 X112.619 Y83.079 E0.0186
G1 X113.152 Y83.032 E0.0186
G1 X113.670 Y82.894 E0.0186
G1 X114.155 Y82.667 E0.0186
G1 X114.593 Y82.360 E0.0186
G1 X114.972 Y81.982 E0.0186
G1 X115.253 Y81.581 E0.0170
G1 X121.913 Y81.578 E0.2315
G1 X121.728 Y82.445 E0.0308
G1 X121.430 Y83.367 E0.0337
G1 X121.039 Y84.254 E0.0337
G1 X120.558 Y85.096 E0.0337
G1 X119.993 Y85.885 E0.0337
G1 X119.351 Y86.611 E0.0337
G1 X118.637 Y87.267 E0.0337
G1 X117.860 Y87.847 E0.0337
G1 X117.028 Y88.343 E0.0337
G1 X116.148 Y88.752 E0.0337
G1 X115.232 Y89.068 E0.0337
G1 X114.288 Y89.289 E0.0337
G1 X113.326 Y89.411 E0.0337
G1 X112.357 Y89.434 E0.0337
G1 X111.390 Y89.357 E0.0337
G1 X110.437 Y89.181 E0.0337
G1 X109.506 Y88.909 E0.0337
G1 X108.609 Y88.542 E0.0337
G1 X107.754 Y88.085 E0.0337
G1 X106.950 Y87.543 E0.0337
G1 X106.206 Y86.921 E0.0337
G1 X105.530 Y86.226 E0.0337
G1 X104.929 Y85.465 E0.0337
G1 X104.410 Y84.647 E0.0337
G1 X103.977 Y83.779 E0.0337
G1 X103.635 Y82.872 E0.0337
G1 X103.388 Y81.934 E0.0337
G1 X103.239 Y80.976 E0.0337
G1 X103.190 Y80.008 E0.0337
G1 X103.239 Y79.040 E0.0337
G1 X103.388 Y78.081 E0.0337
G1 X103.635 Y77.144 E0.0337
G1 X103.977 Y76.237 E0.0337
G1 X104.410 Y75.369 E0.0337
G1 X104.661 Y74.973 E0.0163
G1 X104.929 Y74.550 F1512
G1 X105.530 Y73.790 F3600
G1 X106.206 Y73.095 F3600
G1 X106.253 Y73.056 F3600
; gap fill
G1 X103.565 Y79.210 F6000
