; G-Code generated by Simplify3D(R) Version 3.1.1
; Mar 26, 2018 at 9:56:35 PM
; Settings Summary
;   processName,Prusa i3 Mk2S
;   applyToModels,Zentrierring_4
;   profileName,Default (modified)
;   profileVersion,2017-07-16 09:26:29
;   baseProfile,Default
;   printMaterial,PETg
;   printQuality,Normal 0.2
;   printExtruders,
;   extruderName,Primary Extruder
;   extruderToolheadNumber,0
;   extruderDiameter,0.4
;   extruderAutoWidth,0
;   extruderWidth,0.44
;   extrusionMultiplier,0.95
;   extruderUseRetract,1
;   extruderRetractionDistance,1
;   extruderExtraRestartDistance,0
;   extruderRetractionZLift,0.5
;   extruderRetractionSpeed,1800
;   extruderUseCoasting,1
;   extruderCoastingDistance,0.5
;   extruderUseWipe,1
;   extruderWipeDistance,2
;   primaryExtruder,0
;   layerHeight,0.2
;   topSolidLayers,5
;   bottomSolidLayers,4
;   perimeterOutlines,3
;   printPerimetersInsideOut,1
;   startPointOption,2
;   startPointOriginX,230
;   startPointOriginY,0
;   startPointOriginZ,210
;   sequentialIslands,0
;   spiralVaseMode,0
;   firstLayerHeightPercentage,100
;   firstLayerWidthPercentage,100
;   firstLayerUnderspeed,0.7
;   useRaft,0
;   raftExtruder,0
;   raftLayers,3
;   raftOffset,3
;   raftSeparationDistance,0.14
;   raftInfill,85
;   disableRaftBaseLayers,0
;   useSkirt,0
;   skirtExtruder,0
;   skirtLayers,1
;   skirtOutlines,5
;   skirtOffset,0
;   usePrimePillar,0
;   primePillarExtruder,999
;   primePillarWidth,12
;   primePillarLocation,7
;   primePillarSpeedMultiplier,1
;   useOozeShield,0
;   oozeShieldExtruder,999
;   oozeShieldOffset,2
;   oozeShieldOutlines,1
;   oozeShieldSidewallShape,1
;   oozeShieldSidewallAngle,30
;   oozeShieldSpeedMultiplier,1
;   infillExtruder,0
;   internalInfillPattern,Grid
;   externalInfillPattern,Rectilinear
;   infillPercentage,40
;   outlineOverlapPercentage,25
;   infillExtrusionWidthPercentage,100
;   minInfillLength,2
;   infillLayerInterval,1
;   infillAngles,45,-45
;   overlapInfillAngles,1
;   generateSupport,0
;   supportExtruder,0
;   supportInfillPercentage,25
;   supportExtraInflation,0.2
;   denseSupportLayers,0
;   denseSupportInfillPercentage,75
;   supportLayerInterval,1
;   supportHorizontalPartOffset,0.25
;   supportUpperSeparationLayers,1
;   supportLowerSeparationLayers,1
;   supportType,0
;   supportGridSpacing,4
;   maxOverhangAngle,0
;   supportAngles,0,90
;   temperatureName,Primary Extruder,Heated Bed
;   temperatureNumber,0,1
;   temperatureSetpointCount,2,1
;   temperatureSetpointLayers,1,1,1
;   temperatureSetpointTemperatures,240,235,90
;   temperatureStabilizeAtStartup,1,1
;   temperatureHeatedBed,0,1
;   temperatureRelayBetweenLayers,0,0
;   temperatureRelayBetweenLoops,0,0
;   fanLayers,1,4
;   fanSpeeds,0,100
;   blipFanToFullPower,1
;   adjustSpeedForCooling,1
;   minSpeedLayerTime,12
;   minCoolingSpeedSlowdown,15
;   increaseFanForCooling,0
;   minFanLayerTime,45
;   maxCoolingFanSpeed,100
;   increaseFanForBridging,1
;   bridgingFanSpeed,100
;   use5D,1
;   relativeEdistances,1
;   allowEaxisZeroing,1
;   independentExtruderAxes,0
;   includeM10123,0
;   stickySupport,1
;   applyToolheadOffsets,0
;   gcodeXoffset,0
;   gcodeYoffset,0
;   gcodeZoffset,0
;   overrideMachineDefinition,1
;   machineTypeOverride,0
;   strokeXoverride,250
;   strokeYoverride,210
;   strokeZoverride,200
;   originOffsetXoverride,0
;   originOffsetYoverride,0
;   originOffsetZoverride,0
;   homeXdirOverride,-1
;   homeYdirOverride,-1
;   homeZdirOverride,-1
;   flipXoverride,1
;   flipYoverride,-1
;   flipZoverride,1
;   toolheadOffsets,0,0|0,0|0,0|0,0|0,0|0,0
;   overrideFirmwareConfiguration,0
;   firmwareTypeOverride,RepRap (Marlin/Repetier/Sprinter)
;   GPXconfigOverride,r2
;   baudRateOverride,115200
;   overridePrinterModels,0
;   printerModelsOverride
;   startingGcode,M115 U3.0.12 ; tell the printer latest firmware varsion available,M104 S[extruder0_temperature] T0 ; this will take the layer 1 temperature for extruder 0,M140 S[bed1_temperature] ; this will take the layer 1 temperature for bed 0,M190 S[bed1_temperature] ; wait for bed temp,M109 S[extruder0_temperature] T0 ; wait for extruder temp,G28 W ; home all without mesh bed level,G80 ; mesh bed leveling,G1 Y-3.0 F1000.0 ; go outside printing area,G1 X60.0 E9.0  F1000.0 ; intro line,G1 X100.0 E12.5  F1000.0 ; intro line,
;   layerChangeGcode,
;   retractionGcode,
;   toolChangeGcode,
;   endingGcode,M104 S0 ; turn off extruder,M140 S0 ; turn off bed,M107 ; turn off fan,G1 X0 Y200; home X axis,M84 ; disable motors
;   exportFileFormat,gcode
;   celebration,0
;   celebrationSong,Random Song
;   postProcessing,{REPLACE "; outer perimeter\n" "; outer perimeter\nM204 S800\n"},{REPLACE "; inner perimeter\n" "; inner perimeter\nM204 S1000\n"},{REPLACE "; solid layer\n" "; solid layer\nM204 S1000\n"},{REPLACE "; infill\n" "; infill\nM204 S2000\n"}
;   defaultSpeed,3600
;   outlineUnderspeed,0.6
;   solidInfillUnderspeed,0.6
;   supportUnderspeed,0.8
;   rapidXYspeed,6000
;   rapidZspeed,720
;   minBridgingArea,25
;   bridgingExtraInflation,2
;   bridgingExtrusionMultiplier,0.8
;   bridgingSpeedMultiplier,0.75
;   filamentDiameter,1.75
;   filamentPricePerKg,46
;   filamentDensity,1.25
;   useMinPrintHeight,0
;   minPrintHeight,0
;   useMaxPrintHeight,0
;   maxPrintHeight,0
;   useDiaphragm,0
;   diaphragmLayerInterval,20
;   robustSlicing,1
;   mergeAllIntoSolid,0
;   onlyRetractWhenCrossingOutline,1
;   retractBetweenLayers,1
;   useRetractionMinTravel,1
;   retractionMinTravel,2
;   retractWhileWiping,1
;   onlyWipeOutlines,1
;   avoidCrossingOutline,1
;   maxMovementDetourFactor,3
;   toolChangeRetractionDistance,12
;   toolChangeExtraRestartDistance,-0.5
;   toolChangeRetractionSpeed,600
;   allowThinWallGapFill,1
;   thinWallAllowedOverlapPercentage,20
;   horizontalSizeCompensation,-0.05
G90
M83
M106 S0
M115 U3.0.12 ; tell the printer latest firmware varsion available
M104 S240 T0 ; this will take the layer 1 temperature for extruder 0
M140 S90 ; this will take the layer 1 temperature for bed 0
M190 S90 ; wait for bed temp
M109 S240 T0 ; wait for extruder temp
G28 W ; home all without mesh bed level
G80 ; mesh bed leveling
G1 Y-3.0 F1000.0 ; go outside printing area
G1 X60.0 E9.0  F1000.0 ; intro line
G1 X100.0 E12.5  F1000.0 ; intro line
G1 E-1.0000 F1800
G1 Z0.700 F720
; layer 1, Z = 0.2
T0
; tool H0.200 W0.440
; inner perimeter
M204 S1000
G1 X93.896 Y38.490 F6000
G1 Z0.200 F720
G1 E1.0000 F540
G1 X95.132 Y35.452 E0.1140 F2184
G1 X95.515 Y35.886 E0.0201
G1 X95.898 Y36.195 E0.0171
G1 X96.328 Y36.436 E0.0171
G1 X96.792 Y36.600 E0.0171
G1 X97.255 Y36.679 E0.0163
G1 X97.546 Y36.691 E0.0101
G1 X97.442 Y36.887 E0.0077
G1 X96.255 Y39.935 E0.1137
G1 X95.424 Y43.099 E0.1137
G1 X94.967 Y46.275 E0.1115
G1 X94.472 Y46.051 E0.0189
G1 X93.996 Y45.927 E0.0171
G1 X93.505 Y45.885 E0.0171
G1 X93.014 Y45.927 E0.0171
G1 X92.537 Y46.051 E0.0171
G1 X92.308 Y46.155 E0.0087
G1 X92.416 Y44.764 E0.0485
G1 X92.994 Y41.589 E0.1122
G1 X93.757 Y38.970 E0.0948
G1 X93.896 Y38.490 F2184
G1 X95.792 Y34.809 F6000
G1 X95.723 Y34.697 F6000
G1 X95.598 Y34.384 F6000
G1 X95.524 Y34.046 F6000
G1 X95.509 Y33.704 F6000
G1 X95.553 Y33.364 F6000
G1 X95.652 Y33.039 F6000
G1 X95.807 Y32.732 F6000
G1 X96.010 Y32.457 F6000
G1 X96.257 Y32.220 F6000
G1 X96.541 Y32.029 F6000
G1 X96.852 Y31.888 F6000
G1 X97.183 Y31.802 F6000
G1 X97.349 Y31.788 F6000
G1 X97.802 Y30.908 F6000
G1 X98.431 Y29.974 E0.0392 F2184
G1 X100.499 Y27.495 E0.1122
G1 X102.810 Y25.243 E0.1122
G1 X105.341 Y23.239 E0.1122
G1 X105.602 Y23.073 E0.0107
G1 X105.728 Y23.659 E0.0208
G1 X105.912 Y24.116 E0.0171
G1 X106.170 Y24.535 E0.0171
G1 X106.495 Y24.905 E0.0171
G1 X106.879 Y25.215 E0.0171
G1 X107.109 Y25.344 E0.0092
G1 X105.368 Y26.609 E0.0748
G1 X102.958 Y28.821 E0.1137
G1 X100.815 Y31.293 E0.1137
G1 X100.076 Y32.374 E0.0455
G1 X99.704 Y31.871 E0.0218
G1 X99.348 Y31.530 E0.0171
G1 X98.940 Y31.254 E0.0171
G1 X98.492 Y31.051 E0.0171
G1 X98.292 Y30.999 E0.0072
G1 X98.015 Y30.927 F2184
G1 X97.802 Y30.908 F2184
G1 X108.141 Y24.785 F6000
G1 X108.329 Y24.817 F6000
G1 X108.511 Y24.824 F6000
G1 X108.681 Y24.817 F6000
G1 X109.013 Y24.760 F6000
G1 X109.335 Y24.646 F6000
G1 X109.634 Y24.479 F6000
G1 X109.900 Y24.264 F6000
G1 X110.126 Y24.008 F6000
G1 X110.305 Y23.716 F6000
G1 X110.418 Y23.436 F6000
G1 X111.426 Y22.839 F6000
G1 X111.344 Y22.197 E0.0225 F2184
G1 X111.200 Y21.726 E0.0171
G1 X110.978 Y21.286 E0.0171
G1 X110.685 Y20.890 E0.0171
G1 X110.210 Y20.435 E0.0229
G1 X110.951 Y20.064 E0.0288
G1 X113.971 Y18.926 E0.1122
G1 X117.092 Y18.104 E0.1122
G1 X120.281 Y17.607 E0.1122
G1 X120.849 Y17.578 E0.0198
G1 X120.666 Y18.177 E0.0218
G1 X120.603 Y18.666 E0.0171
G1 X120.624 Y19.158 E0.0171
G1 X120.728 Y19.640 E0.0171
G1 X120.912 Y20.097 E0.0171
G1 X121.024 Y20.279 E0.0074
G1 X120.239 Y20.324 E0.0273
G1 X117.015 Y20.882 E0.1137
G1 X113.876 Y21.804 E0.1137
G1 X111.887 Y22.645 E0.0751
G1 X111.426 Y22.839 F2184
G1 X116.568 Y21.935 F6000
G1 X117.216 Y21.745 F6000
G1 X120.340 Y21.204 F6000
G1 X120.911 Y21.172 F6000
G1 X123.181 Y20.772 F6000
G1 X123.334 Y20.799 F6000
G1 X123.676 Y20.799 F6000
G1 X124.013 Y20.741 F6000
G1 X124.335 Y20.627 F6000
G1 X124.485 Y20.543 F6000
G1 X125.986 Y20.279 F6000
G1 X126.098 Y20.097 E0.0074 F2184
G1 X126.282 Y19.640 E0.0171
G1 X126.385 Y19.158 E0.0171
G1 X126.406 Y18.666 E0.0171
G1 X126.344 Y18.178 E0.0171
G1 X126.160 Y17.578 E0.0218
G1 X126.728 Y17.607 E0.0198
G1 X129.917 Y18.104 E0.1122
G1 X133.038 Y18.926 E0.1122
G1 X136.058 Y20.064 E0.1122
G1 X136.800 Y20.435 E0.0288
G1 X136.325 Y20.890 E0.0229
G1 X136.032 Y21.286 E0.0171
G1 X135.810 Y21.726 E0.0171
G1 X135.666 Y22.197 E0.0171
G1 X135.584 Y22.839 E0.0225
G1 X133.133 Y21.804 E0.0925
G1 X129.994 Y20.882 E0.1137
G1 X126.771 Y20.324 E0.1137
G1 X126.485 Y20.308 E0.0099
G1 X125.986 Y20.279 F2184
G1 X130.927 Y22.078 F6000
G1 X132.836 Y22.638 F6000
G1 X135.124 Y23.605 F6000
G1 X137.252 Y24.380 F6000
G1 X137.376 Y24.479 F6000
G1 X137.674 Y24.646 F6000
G1 X137.997 Y24.760 F6000
G1 X138.334 Y24.818 F6000
G1 X138.456 Y24.818 F6000
G1 X139.900 Y25.344 F6000
G1 X140.131 Y25.215 E0.0092 F2184
G1 X140.514 Y24.905 E0.0171
G1 X140.840 Y24.535 E0.0171
G1 X141.098 Y24.116 E0.0171
G1 X141.282 Y23.659 E0.0171
G1 X141.408 Y23.073 E0.0208
G1 X141.669 Y23.239 E0.0107
G1 X144.199 Y25.242 E0.1122
G1 X146.511 Y27.495 E0.1122
G1 X148.579 Y29.974 E0.1122
G1 X149.208 Y30.908 E0.0392
G1 X148.995 Y30.927 E0.0074
G1 X148.518 Y31.051 E0.0171
G1 X148.069 Y31.254 E0.0171
G1 X147.661 Y31.530 E0.0171
G1 X147.305 Y31.871 E0.0171
G1 X146.933 Y32.374 E0.0218
G1 X146.194 Y31.293 E0.0455
G1 X144.052 Y28.821 E0.1137
G1 X141.642 Y26.609 E0.1137
G1 X140.305 Y25.637 E0.0574
G1 X139.900 Y25.344 F2184
G1 X143.132 Y29.177 F6000
G1 X143.417 Y29.438 F6000
G1 X145.493 Y31.834 F6000
G1 X146.011 Y32.592 F6000
G1 X147.593 Y34.469 F6000
G1 X147.685 Y34.697 F6000
G1 X147.864 Y34.988 F6000
G1 X148.090 Y35.245 F6000
G1 X148.356 Y35.460 F6000
G1 X148.493 Y35.537 F6000
G1 X149.460 Y36.683 F6000
G1 X149.732 Y36.683 E0.0095 F2184
G1 X150.217 Y36.600 E0.0171
G1 X150.682 Y36.436 E0.0171
G1 X151.112 Y36.195 E0.0171
G1 X151.495 Y35.886 E0.0171
G1 X151.877 Y35.452 E0.0201
G1 X153.113 Y38.490 E0.1140
G1 X154.015 Y41.589 E0.1122
G1 X154.594 Y44.764 E0.1122
G1 X154.701 Y46.155 E0.0485
G1 X154.472 Y46.051 E0.0087
G1 X153.996 Y45.927 E0.0171
G1 X153.505 Y45.885 E0.0171
G1 X153.014 Y45.927 E0.0171
G1 X152.537 Y46.051 E0.0171
G1 X152.043 Y46.275 E0.0189
G1 X151.586 Y43.099 E0.1115
G1 X150.754 Y39.935 E0.1137
G1 X149.665 Y37.138 E0.1043
G1 X149.567 Y36.887 F2184
G1 X149.460 Y36.683 F2184
G1 X150.396 Y42.050 F6000
G1 X150.718 Y43.275 F6000
G1 X151.169 Y46.413 F6000
G1 X151.171 Y46.498 F6000
G1 X151.518 Y48.486 F6000
G1 X151.490 Y48.704 F6000
G1 X151.505 Y49.045 F6000
G1 X151.577 Y49.380 F6000
G1 X151.704 Y49.697 F6000
G1 X151.739 Y49.754 F6000
G1 X152.003 Y51.265 F6000
G1 X152.309 Y51.436 E0.0122 F2184
G1 X152.773 Y51.600 E0.0171
G1 X153.258 Y51.683 E0.0171
G1 X153.751 Y51.683 E0.0171
G1 X154.237 Y51.600 E0.0171
G1 X154.732 Y51.425 E0.0183
G1 X154.345 Y54.410 E0.1046
G1 X153.604 Y57.551 E0.1122
G1 X152.544 Y60.599 E0.1122
G1 X151.839 Y62.105 E0.0578
G1 X151.666 Y61.871 E0.0101
G1 X151.310 Y61.530 E0.0171
G1 X150.902 Y61.254 E0.0171
G1 X150.453 Y61.051 E0.0171
G1 X149.976 Y60.927 E0.0171
G1 X149.430 Y60.880 E0.0191
G1 X150.204 Y59.185 E0.0648
G1 X151.215 Y56.073 E0.1137
G1 X151.865 Y52.867 E0.1137
G1 X151.960 Y51.763 E0.0385
G1 X152.003 Y51.265 F2184
G1 X150.374 Y55.772 F6000
G1 X150.359 Y55.848 F6000
G1 X149.379 Y58.863 F6000
G1 X148.796 Y60.140 F6000
G1 X147.946 Y62.492 F6000
G1 X147.768 Y62.732 F6000
G1 X147.614 Y63.037 F6000
G1 X147.514 Y63.365 F6000
G1 X147.471 Y63.704 F6000
G1 X147.475 Y63.796 F6000
G1 X146.963 Y65.212 F6000
G1 X147.151 Y65.516 E0.0124 F2184
G1 X147.476 Y65.886 E0.0171
G1 X147.859 Y66.195 E0.0171
G1 X148.289 Y66.436 E0.0171
G1 X148.754 Y66.600 E0.0171
G1 X149.221 Y66.680 E0.0165
G1 X147.577 Y68.871 E0.0952
G1 X145.384 Y71.240 E0.1122
G1 X142.960 Y73.370 E0.1122
G1 X141.386 Y74.489 E0.0671
G1 X141.344 Y74.158 E0.0116
G1 X141.200 Y73.687 E0.0171
G1 X140.978 Y73.247 E0.0171
G1 X140.685 Y72.851 E0.0171
G1 X140.329 Y72.511 E0.0171
G1 X139.927 Y72.239 E0.0169
G1 X140.346 Y71.969 E0.0173
G1 X142.878 Y69.898 E0.1137
G1 X145.158 Y67.552 E0.1137
G1 X146.658 Y65.608 E0.0853
G1 X146.963 Y65.212 F2184
G1 X142.876 Y68.632 F6000
G1 X142.279 Y69.246 F6000
G1 X139.825 Y71.253 F6000
G1 X139.476 Y71.477 F6000
G1 X137.789 Y72.889 F6000
G1 X137.521 Y73.010 F6000
G1 X137.238 Y73.201 F6000
G1 X136.991 Y73.438 F6000
G1 X136.788 Y73.713 F6000
G1 X136.776 Y73.737 F6000
G1 X135.606 Y74.715 F6000
G1 X135.624 Y75.139 E0.0147 F2184
G1 X135.728 Y75.621 E0.0171
G1 X135.912 Y76.078 E0.0171
G1 X136.170 Y76.497 E0.0171
G1 X136.495 Y76.867 E0.0171
G1 X136.826 Y77.134 E0.0148
G1 X134.563 Y78.123 E0.0858
G1 X131.488 Y79.104 E0.1122
G1 X128.329 Y79.764 E0.1122
G1 X126.141 Y79.991 E0.0765
G1 X126.282 Y79.640 E0.0131
G1 X126.385 Y79.158 E0.0171
G1 X126.406 Y78.666 E0.0171
G1 X126.344 Y78.178 E0.0171
G1 X126.200 Y77.707 E0.0171
G1 X125.993 Y77.297 E0.0160
G1 X128.391 Y77.022 E0.0839
G1 X131.577 Y76.281 E0.1137
G1 X134.658 Y75.181 E0.1137
G1 X135.157 Y74.936 E0.0193
G1 X135.606 Y74.715 F2184
G1 X130.579 Y75.605 F6000
G1 X128.240 Y76.149 F6000
G1 X126.148 Y76.389 F6000
G1 X123.824 Y76.800 F6000
G1 X123.505 Y76.773 F6000
G1 X123.164 Y76.802 F6000
G1 X122.833 Y76.888 F6000
G1 X122.521 Y77.029 F6000
G1 X122.518 Y77.031 F6000
G1 X121.017 Y77.297 F6000
G1 X120.810 Y77.707 E0.0160 F2184
G1 X120.666 Y78.177 E0.0171
G1 X120.603 Y78.666 E0.0171
G1 X120.624 Y79.158 E0.0171
G1 X120.728 Y79.640 E0.0171
G1 X120.869 Y79.991 E0.0131
G1 X118.681 Y79.764 E0.0765
G1 X115.521 Y79.104 E0.1122
G1 X112.447 Y78.123 E0.1122
G1 X110.184 Y77.134 E0.0858
G1 X110.514 Y76.867 E0.0148
G1 X110.840 Y76.497 E0.0171
G1 X111.098 Y76.078 E0.0171
G1 X111.282 Y75.621 E0.0171
G1 X111.385 Y75.139 E0.0171
G1 X111.403 Y74.715 E0.0147
G1 X112.352 Y75.181 E0.0367
G1 X115.433 Y76.281 E0.1137
G1 X118.619 Y77.022 E0.1137
G1 X120.520 Y77.240 E0.0665
G1 X121.017 Y77.297 F2184
G1 X116.222 Y75.556 F6000
G1 X115.682 Y75.431 F6000
G1 X112.696 Y74.365 F6000
G1 X112.005 Y74.025 F6000
G1 X109.794 Y73.223 F6000
G1 X109.772 Y73.201 F6000
G1 X109.488 Y73.010 F6000
G1 X109.177 Y72.869 F6000
G1 X108.846 Y72.783 F6000
G1 X108.505 Y72.754 F6000
G1 X108.502 Y72.754 F6000
G1 X107.083 Y72.239 F6000
G1 X106.680 Y72.511 E0.0169 F2184
G1 X106.325 Y72.851 E0.0171
G1 X106.032 Y73.247 E0.0171
G1 X105.810 Y73.687 E0.0171
G1 X105.666 Y74.158 E0.0171
G1 X105.623 Y74.489 E0.0116
G1 X104.050 Y73.370 E0.0671
G1 X101.625 Y71.240 E0.1122
G1 X99.433 Y68.871 E0.1122
G1 X97.789 Y66.680 E0.0952
G1 X98.256 Y66.600 E0.0165
G1 X98.720 Y66.436 E0.0171
G1 X99.150 Y66.195 E0.0171
G1 X99.533 Y65.886 E0.0171
G1 X99.859 Y65.516 E0.0171
G1 X100.046 Y65.212 E0.0124
G1 X101.851 Y67.552 E0.1027
G1 X104.131 Y69.898 E0.1137
G1 X106.662 Y71.968 E0.1136
G1 X106.664 Y71.969 F2184
G1 X107.083 Y72.239 F2184
G1 X103.642 Y68.126 F6000
G1 X102.521 Y66.972 F6000
G1 X100.687 Y64.595 F6000
